!!!!SEGMENT: pl-cz--iii-624--001-005_raszek-waclaw--missa-in-f-credo.krn
!!!cenid: 17xx:1063
!!!COM: Raszek, Wacław
!!!COM-rismID: pe30020314
!!!CDT: <1848->1848
!!!CNT:
!!!OPR: Missa in F
!!!OTL: Credo
!!!OMV: 005
!!!PDT:
!!!AGN: Sacred; Mass
!!!SMS-siglum: PL-CZ
!!!SMS-shelfmark: III-624
!!!SMS-shelfwork: 001-005 M
!!!SMS-variant:
!!!SMS-altvar:
!!!NIFC-rismSourceID: 300001049
!!!NIFC-rismChildID: 300001049
!!!NIFC-islandoraID: pl-cz:39539
!!!URL-pdf-islandora: https://repozytorium.nifc.pl/islandora/object/pl-cz%3A39539/datastream/PDF/view
!!!URL-scan:
!!!ONB-nifc: UWAGA: części Mszy: Kyrie, Gloria, Domine Deus, Cum sancto spiritu, Credo, Et incarnatus, Et resurrexit, Sanctus, Benedictus, Agnus Dei, Dona nobis. Uwaga: partia violino principale tylko w cz. Benedictus
!!!AIN: 1 alto 3 empty 2 flt 1 organ 1 tenor 1 viola 3 violn 1 vox
!!!key: F
!!!OMD:
!!!OMD-mod: Allegro
!!!filter-modern: sic -sq | shed -e "s/TX(.*):t=P:/tx$1:t=P:/LG" | shed -k -e "s/LO:N:vis/LO:n:vis:/L" | shed -e "s/^(\d+[\/\\]right)/$1yy/I;s/^(\d+[\/\\]left)/$1yy/I" | shed -e "s/yy//" | shed -e "s/:rj/:RJ/L" | shed -e "s/LO:DY:(a|b|rj)/LO:dy:$1/L" | shed -e "s/(LO:DY.*):t=(.*$)/$1:T=$2/L; s/LO:DY(.*)(:a:)(.*)/LO:dy:$1$2$3/L; s/LO:DY(.*)(:b:)(.*)/LO:dy:$1$2$3/L; s/LO:DY(.*)(:[ab])$/LO:dy:$1$2/L; s/LO:DY(.*)(:rj:)(.*)/LO:dy:$1$2$3/L" | shed -e "s/-//B" | modori -m | tie -s | autostem -r | humtr -p
**kern	**fba	**dynam	**kern	**dynam	**kern	**dynam	**kern	**dynam	**kern	**kern	**text	**dynam	**kern	**text	**dynam	**kern	**text	**dynam	**kern	**text	**dynam	**kern	**dynam	**kern	**dynam	**kern	**dynam	**kern	**dynam
*	*	*	*group4	*	*group4	*	*group4	*	*group4	*group3	*	*	*group3	*	*	*group3	*	*	*group3	*	*	*group2	*	*group2	*	*group1	*	*group1	*
*part13	*part13	*part13	*part12	*part12	*part11	*part11	*part10	*part10	*part9	*part8	*part8	*part8	*part7	*part7	*part7	*part6	*part6	*part6	*part5	*part5	*part5	*part4	*part4	*part3	*part3	*part2	*	*part1	*
*staff13	*	*	*staff12	*	*staff11	*	*staff10	*	*staff9	*staff8	*staff8	*	*staff7	*staff7	*	*staff6	*staff6	*	*staff5	*staff5	*	*staff4	*	*staff3	*	*staff2	*	*staff1	*
*Iorgan	*	*	*Iviola	*	*Ivioln	*	*Ivioln	*	*Ivioln	*Iempty	*	*	*Itenor	*	*	*Ialto	*	*	*Ivox	*	*	*Iempty	*	*Iempty	*	*Iflt	*	*Iflt	*
*I"Organo.	*	*	*I"Alto Viola.	*	*I"Violino Secondo.	*	*I"Violino Primo	*	*I"Violino Principale	*I"Baſso.	*	*	*I"Tenore.	*	*	*I"Alto.	*	*	*I"Canto.	*	*	*I"Cornu 2.do in F.	*	*I"Cornu Primo. in F.	*	*I"Flauto 2do	*	*I"Flauto Primo.	*
*mI"Organo	*	*	*mI"Viola	*	*mI"Violino II	*	*mI"Violino I	*	*	*mI"Basso	*	*	*mI"Tenore	*	*	*mI"Alto	*	*	*mI"Soprano	*	*	*mI"Corno II in F	*	*mI"Corno I in F	*	*mI"Flauto II	*	*mI"Flauto I	*
*I'org	*	*	*I'a-vla	*	*I'vl 2	*	*I'vl 1	*	*I'vl princ	*I'B	*	*	*I'T	*	*	*I'A	*	*	*I'S	*	*	*I'cor 2	*	*I'cor 1	*	*I'fl 2	*	*I'fl 1	*
*ICklav	*	*	*ICstr	*	*ICstr	*	*ICstr	*	*ICstr	*ICvox	*	*	*ICvox	*	*	*ICvox	*	*	*ICvox	*	*	*ICbras	*	*ICbras	*	*ICww	*	*ICww	*
*clefF4	*	*	*clefC3	*	*clefG2	*	*clefG2	*	*clefG2	*clefF4	*	*	*clefC4	*	*	*clefC3	*	*	*clefC1	*	*	*clefG2	*	*clefG2	*	*clefG2	*	*clefG2	*
*	*	*	*	*	*	*	*	*	*	*	*	*	*mclefGv2	*	*	*mclefG2	*	*	*mclefG2	*	*	*	*	*	*	*	*	*	*
*	*	*	*	*	*	*	*	*	*	*	*	*	*	*	*	*	*	*	*	*	*	*ITrd4c7	*	*ITrd4c7	*	*	*	*	*
*k[b-]	*	*	*k[b-]	*	*k[b-]	*	*k[b-]	*	*k[b-]	*k[b-]	*	*	*k[b-]	*	*	*k[b-]	*	*	*k[b-]	*	*	*k[b-]	*	*k[b-]	*	*k[b-]	*	*k[b-]	*
*F:	*	*	*F:	*	*F:	*	*F:	*	*F:	*F:	*	*	*F:	*	*	*F:	*	*	*F:	*	*	*	*	*	*	*F:	*	*F:	*
*M3/4	*	*	*M3/4	*	*M3/4	*	*M3/4	*	*M3/4	*M3/4	*	*	*M3/4	*	*	*M3/4	*	*	*M3/4	*	*	*M3/4	*	*M3/4	*	*M3/4	*	*M3/4	*
*	*	*	*	*	*	*	*	*	*tacet	*	*	*	*	*	*	*	*	*	*	*	*	*	*	*	*	*	*	*	*
=1	=1	=1	=1	=1	=1	=1	=1	=1	=1	=1	=1	=1	=1	=1	=1	=1	=1	=1	=1	=1	=1	=1	=1	=1	=1	=1	=1	=1	=1
*	*	*	*	*	*	*	*	*	*	*	*	*	*	*	*	*	*	*	*	*	*	*	*	*	*	*2\right	*	*2\right	*
!	!	!	!	!	!	!	!LO:TX:t=P:problem=początek partii na lewej stronie skanu 24, kontynuacja na skanie 25	!	!	!	!	!	!	!	!	!	!	!	!	!	!	!	!	!	!	!	!	!	!
!	!	!LO:MO:null:mod=!LO&colon;DY&colon;ed=brack	!	!LO:MO:null:mod=!LO&colon;DY&colon;ed=brack	!	!LO:MO:null:mod=!LO&colon;DY&colon;ed=brack	!LO:TX:t=P:problem=mixed beam	!LO:MO:null:mod=!LO&colon;DY&colon;ed=brack	!	!	!	!LO:MO:null:mod=!LO&colon;DY&colon;ed=brack	!	!	!LO:MO:null:mod=!LO&colon;DY&colon;ed=brack	!	!	!LO:MO:null:mod=!LO&colon;DY&colon;ed=brack	!	!	!LO:MO:null:mod=!LO&colon;DY&colon;ed=brack	!	!LO:MO:null:mod=!LO&colon;DY&colon;ed=brack	!	!LO:MO:null:mod=!LO&colon;DY&colon;ed=brack	!	!LO:MO:null:mod=!LO&colon;DY&colon;ed=brack	!	!LO:MO:null:mod=!LO&colon;DY&colon;ed=brack
!LO:TX:a:i:t=Allo&colon;:mod=	!	!	!LO:TX:rj:a:t=Credo.:mod=	!	!LO:TX:rj:a:t=Credo.:mod=	!	!LO:TX:rj:a:t=Credo:mod=	!	!	!	!	!	!	!	!	!	!	!	!	!	!	!LO:TX:rj:a:t=Credo.:mod=	!	!LO:TX:rj:a:t=Credo.:mod=	!	!LO:TX:rj:a:t=Credo.:mod=	!	!LO:TX:rj:a:t=Credo.:mod=	!
!LO:TX:rj:a:t=Credo:mod=	!	!LO:MO:null:mod=f	!LO:TX:a:i:t=Allo&colon;:mod=	!LO:MO:null:mod=f	!LO:TX:a:i:t=Allo&colon;:mod=	!LO:MO:null:mod=f	!LO:TX:a:i:t=Allo&colon;:mod=	!LO:MO:null:mod=f	!	!LO:TX:a:i:t=Allo&colon;:mod=	!	!LO:MO:null:mod=f	!LO:TX:a:i:t=Allo&colon;:mod=	!	!LO:MO:null:mod=f	!LO:TX:a:i:t=Allo&colon;:mod=	!	!LO:MO:null:mod=f	!LO:TX:a:i:t=Allo&colon;:mod=	!	!LO:MO:null:mod=f	!LO:TX:a:i:t=Allo&colon;:mod=	!LO:MO:null:mod=f	!LO:TX:a:i:t=Allo&colon;:mod=	!LO:MO:null:mod=f	!LO:TX:a:i:t=Allo&colon;:mod=	!LO:MO:null:mod=f	!LO:TX:a:i:t=Allo&colon;:mod=	!LO:MO:null:mod=f
8F\L	.	.	8c\L	.	16a/LL	.	8ff\L	.	2.ryy	4F\	Cre-	.	4c\	Cre-	.	4a\	Cre-	.	4a\	Cre-	.	4f\	.	4a\	.	2ff\	.	2ff\	.
.	.	.	.	.	16a/	.	.	.	.	.	.	.	.	.	.	.	.	.	.	.	.	.	.	.	.	.	.	.	.
8F\	.	.	8c\	.	16a/	.	16f/L	.	.	.	.	.	.	.	.	.	.	.	.	.	.	.	.	.	.	.	.	.	.
.	.	.	.	.	16a/JJ	.	16g/JJ	.	.	.	.	.	.	.	.	.	.	.	.	.	.	.	.	.	.	.	.	.	.
*	*	*	*	*	*tremolo	*	*	*	*	*	*	*	*	*	*	*	*	*	*	*	*	*	*	*	*	*	*	*	*
!	!	!	!	!	!	!	!	!LO:DY:a:t=for.	!	!	!	!	!	!	!	!	!	!	!	!	!	!	!	!	!	!	!	!	!
!	!	!	!	!	!	!	!	!LO:MO:null:mod=.	!	!	!	!	!	!	!	!	!	!	!	!	!	!	!	!	!	!	!	!	!
8F\	.	.	8c\	.	16a/LL	.	8f/L	f	.	8F\	-do	.	8c\	-do	.	8a\	-do	.	8a\	-do	.	4f\	.	4a\	.	.	.	.	.
.	.	.	.	.	16a/	.	.	.	.	.	.	.	.	.	.	.	.	.	.	.	.	.	.	.	.	.	.	.	.
8F\	.	.	8c\	.	16a/	.	8f/	.	.	8F\	in	.	8c\	in	.	8a\	in	.	8a\	in	.	.	.	.	.	.	.	.	.
.	.	.	.	.	16a/	.	.	.	.	.	.	.	.	.	.	.	.	.	.	.	.	.	.	.	.	.	.	.	.
8F\	.	.	8c\	.	16a/	.	8a/	.	.	8F\	u-	.	8c\	u-	.	8a\	u-	.	8a\	u-	.	4f\	.	4a\	.	4ff\	.	8aa\L	.
.	.	.	.	.	16a/	.	.	.	.	.	.	.	.	.	.	.	.	.	.	.	.	.	.	.	.	.	.	.	.
8F\J	.	.	8c\J	.	16a/	.	8bn/J	.	.	8F\	-num	.	8c\	-num	.	8g\	-num	.	8bn\	-num	.	.	.	.	.	.	.	8bbn\J	.
.	.	.	.	.	16a/JJ	.	.	.	.	.	.	.	.	.	.	.	.	.	.	.	.	.	.	.	.	.	.	.	.
=2	=2	=2	=2	=2	=2	=2	=2	=2	=2	=2	=2	=2	=2	=2	=2	=2	=2	=2	=2	=2	=2	=2	=2	=2	=2	=2	=2	=2	=2
*2\right	*	*	*2\right	*	*	*	*	*	*	*	*	*	*	*	*	*	*	*	*	*	*	*	*	*2\right	*	*	*	*	*
*tremolo	*	*	*tremolo	*	*	*	*	*	*	*	*	*	*	*	*	*	*	*	*	*	*	*	*	*	*	*	*	*	*
!	!	!	!	!	!	!	!LO:SIC:v:s=8bn	!	!	!	!	!	!	!	!	!	!	!	!	!	!	!	!	!	!	!	!	!LO:SIC:v:s=8bbn	!
8E\L	6 -5	.	8c\L	.	16g/LL	.	8b-\L	.	2.ryy	4E\	De-	.	4c\	De-	.	4g\	De-	.	4cc\	De-	.	2c/	.	2g\	.	2.gg\	.	8bb-\L	.
.	.	.	.	.	16g/	.	.	.	.	.	.	.	.	.	.	.	.	.	.	.	.	.	.	.	.	.	.	.	.
8E\	.	.	8c\	.	16g/	.	8cc\	.	.	.	.	.	.	.	.	.	.	.	.	.	.	.	.	.	.	.	.	8ccc\J	.
.	.	.	.	.	16g/	.	.	.	.	.	.	.	.	.	.	.	.	.	.	.	.	.	.	.	.	.	.	.	.
8E\	.	.	8c\	.	16g/	.	8cc\	.	.	8E\	-um	.	8c\	-um	.	8g\	-um	.	8cc\	-um	.	.	.	.	.	.	.	4ccc\	.
.	.	.	.	.	16g/	.	.	.	.	.	.	.	.	.	.	.	.	.	.	.	.	.	.	.	.	.	.	.	.
8E\	.	.	8c\	.	16g/	.	8gg\J	.	.	8E\	Pa-	.	8c\	Pa-	.	8g\	Pa-	.	8cc\	Pa-	.	.	.	.	.	.	.	.	.
.	.	.	.	.	16g/	.	.	.	.	.	.	.	.	.	.	.	.	.	.	.	.	.	.	.	.	.	.	.	.
!	!	!	!	!	!	!	!	!	!	!	!	!	!	!	!	!	!	!	!LO:SIC:l:v:t=-trem	!LO:MO:mod=-trem	!	!	!	!	!	!	!	!	!
8E\	.	.	8c\	.	16g/	.	8gg\L	.	.	8E\	-trem	.	8c\	-trem	.	8g\	-trem	.	8cc\	-tri	.	4c/	.	4g\	.	.	.	4r	.
.	.	.	.	.	16g/	.	.	.	.	.	.	.	.	.	.	.	.	.	.	.	.	.	.	.	.	.	.	.	.
8E\J	.	.	8c\J	.	16g/	.	16bb-\L	.	.	8E\	om-	.	8c\	om-	.	8g\	om-	.	8b-X\	om-	.	.	.	.	.	.	.	.	.
.	.	.	.	.	16g/JJ	.	16gg\JJ	.	.	.	.	.	.	.	.	.	.	.	.	.	.	.	.	.	.	.	.	.	.
=3	=3	=3	=3	=3	=3	=3	=3	=3	=3	=3	=3	=3	=3	=3	=3	=3	=3	=3	=3	=3	=3	=3	=3	=3	=3	=3	=3	=3	=3
!	!	!	!	!	!	!	!LO:TX:t=P:problem=mixed beam	!	!	!	!	!	!	!	!	!	!	!	!	!	!	!	!	!	!	!	!	!	!
8F\L	.	.	8c\L	.	16a/LL	.	8ff\L	.	2.ryy	8F\	-ni-	.	8c\	-ni-	.	8a\	-ni-	.	8a\	-ni-	.	4f\	.	4a\	.	2.aa\	.	2aa\	.
.	.	.	.	.	16a/	.	.	.	.	.	.	.	.	.	.	.	.	.	.	.	.	.	.	.	.	.	.	.	.
8F\	.	.	8c\	.	16a/	.	16f/L	.	.	8F\	-po-	.	8c\	-po-	.	8a\	-po-	.	8a\	-po-	.	.	.	.	.	.	.	.	.
.	.	.	.	.	16a/	.	16g/JJ	.	.	.	.	.	.	.	.	.	.	.	.	.	.	.	.	.	.	.	.	.	.
8F\	.	.	8c\	.	16a/	.	8f/L	.	.	4F\	-ten-	.	4c\	-ten-	.	4a\	-ten-	.	4a\	-ten-	.	4f\	.	4a\	.	.	.	.	.
.	.	.	.	.	16a/	.	.	.	.	.	.	.	.	.	.	.	.	.	.	.	.	.	.	.	.	.	.	.	.
8F\	.	.	8c\	.	16a/	.	8f/	.	.	.	.	.	.	.	.	.	.	.	.	.	.	.	.	.	.	.	.	.	.
.	.	.	.	.	16a/	.	.	.	.	.	.	.	.	.	.	.	.	.	.	.	.	.	.	.	.	.	.	.	.
8F\	.	.	8c\	.	16a/	.	8a/	.	.	8F\	-tem	.	8c\	-tem	.	8a\	-tem	.	8a\	-tem	.	4f\	.	4a\	.	.	.	8aa\L	.
.	.	.	.	.	16a/	.	.	.	.	.	.	.	.	.	.	.	.	.	.	.	.	.	.	.	.	.	.	.	.
!	!	!	!	!	!	!	!	!	!	!	!	!	!	!	!	!	!	!	!	!	!	!	!	!	!	!	!	!LO:SIC:v:s=8bbnJ	!
8F\J	.	.	8c\J	.	16a/	.	8bn/J	.	.	8F\	fa-	.	8c\	fa-	.	8g\	fa-	.	8bn\	fa-	.	.	.	.	.	.	.	8bb-\J	.
.	.	.	.	.	16a/JJ	.	.	.	.	.	.	.	.	.	.	.	.	.	.	.	.	.	.	.	.	.	.	.	.
=4	=4	=4	=4	=4	=4	=4	=4	=4	=4	=4	=4	=4	=4	=4	=4	=4	=4	=4	=4	=4	=4	=4	=4	=4	=4	=4	=4	=4	=4
!	!	!	!	!	!	!	!LO:SIC:v:s=8bn	!	!	!	!	!	!	!	!	!	!	!	!	!	!	!	!	!	!	!	!	!LO:SIC:v:s=8bbnL	!
8E\L	6 5-	.	8c\L	.	16g/LL	.	8b-\L	.	2.ryy	8E\	-cto-	.	8c\	-cto-	.	8g\	-cto-	.	8cc\	-cto-	.	2c/	.	2g\	.	2.gg\	.	8bb-\L	.
.	.	.	.	.	16g/	.	.	.	.	.	.	.	.	.	.	.	.	.	.	.	.	.	.	.	.	.	.	.	.
8E\	.	.	8c\	.	16g/	.	8cc\	.	.	8E\	-rem	.	8c\	-rem	.	8g\	-rem	.	8cc\	-rem	.	.	.	.	.	.	.	8ccc\J	.
.	.	.	.	.	16g/	.	.	.	.	.	.	.	.	.	.	.	.	.	.	.	.	.	.	.	.	.	.	.	.
!	!	!	!	!	!	!	!	!	!	!	!	!	!LO:LB:g=original	!LO:MO:mod=cae-	!	!	!	!	!	!	!	!	!	!	!	!	!	!	!
8E\	.	.	8c\	.	16g/	.	8cc\	.	.	4E\	cae-	.	4c\	Cae-	.	4g\	cae-	.	4cc\	cae-	.	.	.	.	.	.	.	4ccc\	.
.	.	.	.	.	16g/	.	.	.	.	.	.	.	.	.	.	.	.	.	.	.	.	.	.	.	.	.	.	.	.
8E\	.	.	8c\	.	16g/	.	8gg\J	.	.	.	.	.	.	.	.	.	.	.	.	.	.	.	.	.	.	.	.	.	.
.	.	.	.	.	16g/	.	.	.	.	.	.	.	.	.	.	.	.	.	.	.	.	.	.	.	.	.	.	.	.
!	!	!	!	!	!	!	!	!	!	!LO:LB:g=original	!	!	!	!	!	!	!	!	!LO:LB:g=original	!	!	!	!	!	!	!	!	!	!
8E\	.	.	8c\	.	16g/	.	8gg\L	.	.	8E\	-li	.	8c\	-li	.	8g\	-li	.	8cc\	-li	.	4c/	.	4g\	.	.	.	4r	.
.	.	.	.	.	16g/	.	.	.	.	.	.	.	.	.	.	.	.	.	.	.	.	.	.	.	.	.	.	.	.
8E\J	.	.	8c\J	.	16g/	.	16bb-\L	.	.	8E\	et	.	8c\	et	.	8g\	et	.	8b-X\	et	.	.	.	.	.	.	.	.	.
.	.	.	.	.	16g/JJ	.	16gg\JJ	.	.	.	.	.	.	.	.	.	.	.	.	.	.	.	.	.	.	.	.	.	.
=5	=5	=5	=5	=5	=5	=5	=5	=5	=5	=5	=5	=5	=5	=5	=5	=5	=5	=5	=5	=5	=5	=5	=5	=5	=5	=5	=5	=5	=5
8F\L	.	.	8c\L	.	16a/LL	.	16ff\LL	.	2.ryy	8F\	ter-	.	8c\	ter-	.	8f\	ter-	.	8a\	ter-	.	4f\	.	4a\	.	2.ff\	.	4aa\	.
.	.	.	.	.	16a/	.	16gg\	.	.	.	.	.	.	.	.	.	.	.	.	.	.	.	.	.	.	.	.	.	.
8F\	.	.	8c\	.	16a/	.	16aa\	.	.	8F\	-rae	.	8c\	-rae	.	8f\	-rae	.	8a\	-rae	.	.	.	.	.	.	.	.	.
.	.	.	.	.	16a/	.	16gg\JJ	.	.	.	.	.	.	.	.	.	.	.	.	.	.	.	.	.	.	.	.	.	.
8F\	.	.	8c\	.	16a/	.	8ff\L	.	.	4A\	vi-	.	4c\	vi-	.	4f\	vi-	.	4a\	vi-	.	4f\	.	4a\	.	.	.	4ff\	.
.	.	.	.	.	16a/	.	.	.	.	.	.	.	.	.	.	.	.	.	.	.	.	.	.	.	.	.	.	.	.
8F\J	.	.	8c\	.	16a/	.	8ff\	.	.	.	.	.	.	.	.	.	.	.	.	.	.	.	.	.	.	.	.	.	.
.	.	.	.	.	16a/JJ	.	.	.	.	.	.	.	.	.	.	.	.	.	.	.	.	.	.	.	.	.	.	.	.
*Xtremolo	*	*	*	*	*Xtremolo	*	*	*	*	*	*	*	*	*	*	*	*	*	*	*	*	*	*	*	*	*	*	*	*
!	!	!	!	!	!	!	!	!	!	!	!	!	!	!	!	!LO:TX:t=P:problem=ucięty skan	!	!	!	!	!	!	!	!	!	!	!	!	!
8A\L	6	.	8c\	.	16f/LL	.	8ff\	.	.	4A\	-si-	.	4c\	-si-	.	4ryy	.	.	4cc\	-si-	.	4F/	.	4f\	.	.	.	4ccc\	.
.	.	.	.	.	16f/	.	.	.	.	.	.	.	.	.	.	.	.	.	.	.	.	.	.	.	.	.	.	.	.
8A\J	.	.	8c\J	.	16f/	.	8ee\J	.	.	.	.	.	.	.	.	.	.	.	.	.	.	.	.	.	.	.	.	.	.
.	.	.	.	.	16f/JJ	.	.	.	.	.	.	.	.	.	.	.	.	.	.	.	.	.	.	.	.	.	.	.	.
*	*	*	*Xtremolo	*	*	*	*	*	*	*	*	*	*	*	*	*	*	*	*	*	*	*	*	*	*	*	*	*	*
!	!	!	!	!	!	!	!	!	!	!	!	!	!	!	!	!LO:LB:g=original	!	!	!	!	!	!	!	!	!	!	!	!	!
=6	=6	=6	=6	=6	=6	=6	=6	=6	=6	=6	=6	=6	=6	=6	=6	=6	=6	=6	=6	=6	=6	=6	=6	=6	=6	=6	=6	=6	=6
*	*	*	*	*	*tremolo	*	*	*	*	*	*	*	*	*	*	*	*	*	*	*	*	*	*	*	*	*	*	*	*
8B-\L	.	.	8B-/L	.	16f/LL	.	4dd\	.	2.ryy	8B-\	-bi-	.	8B-\	-bi-	.	8f\	-bi-	.	8dd\	-bi-	.	4F/	.	4f\	.	2.ff\	.	4ddd\	.
.	.	.	.	.	16f/	.	.	.	.	.	.	.	.	.	.	.	.	.	.	.	.	.	.	.	.	.	.	.	.
8F\	.	.	8F/	.	16f/	.	.	.	.	8B-\	-li-	.	8B-\	-li-	.	8f\	-li-	.	8dd\	-li-	.	.	.	.	.	.	.	.	.
.	.	.	.	.	16f/	.	.	.	.	.	.	.	.	.	.	.	.	.	.	.	.	.	.	.	.	.	.	.	.
*	*	*	*	*	*	*	*	*	*	*	*	*	*	*	*	*	*	*	*	*	*	*	*	*tremolo	*	*	*	*	*
8A\	6	.	8A/	.	16f/	.	8cc\L	.	.	4A\	-um	.	4A\	-um	.	4f\	-um	.	4cc\	-um	.	8F/L	.	8f\L	.	.	.	4ccc\	.
.	.	.	.	.	16f/	.	.	.	.	.	.	.	.	.	.	.	.	.	.	.	.	.	.	.	.	.	.	.	.
8F\	.	.	8F/	.	16f/	.	8cc\	.	.	.	.	.	.	.	.	.	.	.	.	.	.	8F/	.	8f\	.	.	.	.	.
.	.	.	.	.	16f/	.	.	.	.	.	.	.	.	.	.	.	.	.	.	.	.	.	.	.	.	.	.	.	.
8A\	.	.	8A/	.	16f/	.	8ff\	.	.	4r	.	.	(4c\	o-	.	4r	.	.	8ff\L	o-	.	8F/	.	8f\	.	.	.	4ccc\	.
.	.	.	.	.	16f/	.	.	.	.	.	.	.	.	.	.	.	.	.	.	.	.	.	.	.	.	.	.	.	.
8F\J	.	.	8F/J	.	16f/	.	8ee\J	.	.	.	.	.	.	.	.	.	.	.	8ee\J	.	.	8F/J	.	8f\J	.	.	.	.	.
.	.	.	.	.	16f/JJ	.	.	.	.	.	.	.	.	.	.	.	.	.	.	.	.	.	.	.	.	.	.	.	.
!	!	!	!	!	!	!	!LO:LB:g=original	!	!	!	!	!	!	!	!	!	!	!	!	!	!	!	!	!	!	!	!	!	!
=7	=7	=7	=7	=7	=7	=7	=7	=7	=7	=7	=7	=7	=7	=7	=7	=7	=7	=7	=7	=7	=7	=7	=7	=7	=7	=7	=7	=7	=7
8B-\L	.	.	8B-/L	.	16f/LL	.	4dd\	.	2.ryy	8B-\	o-	.	8B-\)	.	.	8f\	o-	.	8.dd\	.	.	4F/	.	4f\	.	2ff\	.	4ddd\	.
.	.	.	.	.	16f/	.	.	.	.	.	.	.	.	.	.	.	.	.	.	.	.	.	.	.	.	.	.	.	.
8F\	.	.	8F/	.	16f/	.	.	.	.	8B-\	-mni-	.	8B-\	-mni-	.	8f\	-mni-	.	.	.	.	.	.	.	.	.	.	.	.
.	.	.	.	.	16f/	.	.	.	.	.	.	.	.	.	.	.	.	.	16dd\	-mni-	.	.	.	.	.	.	.	.	.
*	*	*	*	*	*	*	*	*	*	*	*	*	*	*	*	*	*	*	*	*	*	*tremolo	*	*	*	*	*	*	*
8A\	6	.	8A/	.	16f/	.	8cc\L	.	.	4A\	-um	.	4c\	-um	.	4f\	-um	.	4cc\	-um	.	8F/L	.	8f\L	.	.	.	4ccc\	.
.	.	.	.	.	16f/	.	.	.	.	.	.	.	.	.	.	.	.	.	.	.	.	.	.	.	.	.	.	.	.
8F\	.	.	8F/	.	16f/	.	8cc\	.	.	.	.	.	.	.	.	.	.	.	.	.	.	8F/	.	8f\	.	.	.	.	.
.	.	.	.	.	16f/	.	.	.	.	.	.	.	.	.	.	.	.	.	.	.	.	.	.	.	.	.	.	.	.
8F\	.	.	8c/	.	16f/	.	8aa\	.	.	4r	.	.	4r	.	.	4r	.	.	8a\	et	.	8F/	.	8f\	.	4r	.	4r	.
.	.	.	.	.	16f/	.	.	.	.	.	.	.	.	.	.	.	.	.	.	.	.	.	.	.	.	.	.	.	.
8F\J	.	.	8A/J	.	16f/	.	16gg\L	.	.	.	.	.	.	.	.	.	.	.	8a\	in-	.	8F/J	.	8f\J	.	.	.	.	.
.	.	.	.	.	16f/JJ	.	16ff\JJ	.	.	.	.	.	.	.	.	.	.	.	.	.	.	.	.	.	.	.	.	.	.
*	*	*	*	*	*	*	*	*	*	*	*	*	*	*	*	*	*	*	*	*	*	*Xtremolo	*	*Xtremolo	*	*	*	*	*
!	!	!	!	!	!	!	!	!	!	!	!	!	!	!	!	!	!	!	!	!	!	!	!	!	!	!	!	!LO:LB:g=original	!
=8	=8	=8	=8	=8	=8	=8	=8	=8	=8	=8	=8	=8	=8	=8	=8	=8	=8	=8	=8	=8	=8	=8	=8	=8	=8	=8	=8	=8	=8
*	*	*	*	*	*2\right	*	*	*	*	*	*	*	*2\right	*	*	*2\right	*	*	*2\right	*	*	*	*	*	*	*	*	*	*
8G\L	6	.	8e\L	.	16cc\LL	.	16ff\LL	.	2.ryy	(4G\	et	.	2B-\	et	.	2b-\	et	.	2.cc\	-vi-	.	2c/	.	2g\	.	2gg\	.	2bb-\	.
.	.	.	.	.	16cc\	.	16ee\	.	.	.	.	.	.	.	.	.	.	.	.	.	.	.	.	.	.	.	.	.	.
8G\	.	.	8e\	.	16cc\	.	16dd\	.	.	.	.	.	.	.	.	.	.	.	.	.	.	.	.	.	.	.	.	.	.
.	.	.	.	.	16cc\	.	16cc\JJ	.	.	.	.	.	.	.	.	.	.	.	.	.	.	.	.	.	.	.	.	.	.
8E\	6 5	.	8g\	.	16cc\	.	16cc\LL	.	.	4E\)	.	.	.	.	.	.	.	.	.	.	.	.	.	.	.	.	.	.	.
.	.	.	.	.	16cc\	.	16ee\	.	.	.	.	.	.	.	.	.	.	.	.	.	.	.	.	.	.	.	.	.	.
8E\	.	.	8g\	.	16cc\	.	16gg\	.	.	.	.	.	.	.	.	.	.	.	.	.	.	.	.	.	.	.	.	.	.
.	.	.	.	.	16cc\	.	16bb-\JJ	.	.	.	.	.	.	.	.	.	.	.	.	.	.	.	.	.	.	.	.	.	.
8F\	.	.	8f\	.	16cc\	.	16bb-\LL	.	.	4F\	in-	.	4A\	in-	.	4a\	in-	.	.	.	.	4f\	.	4a\	.	4ff\	.	4aa\	.
.	.	.	.	.	16cc\	.	16aa\	.	.	.	.	.	.	.	.	.	.	.	.	.	.	.	.	.	.	.	.	.	.
8F\J	.	.	8f\J	.	16cc\	.	16gg\	.	.	.	.	.	.	.	.	.	.	.	.	.	.	.	.	.	.	.	.	.	.
.	.	.	.	.	16cc\JJ	.	16ff\JJ	.	.	.	.	.	.	.	.	.	.	.	.	.	.	.	.	.	.	.	.	.	.
!LO:LB:g=original	!	!	!	!	!	!	!	!	!	!	!	!	!	!	!	!	!	!	!	!	!	!	!	!	!	!	!	!	!
=9	=9	=9	=9	=9	=9	=9	=9	=9	=9	=9	=9	=9	=9	=9	=9	=9	=9	=9	=9	=9	=9	=9	=9	=9	=9	=9	=9	=9	=9
8G\L	6	.	8e\L	.	16cc\LL	.	16ff\LL	.	2.ryy	(4G\	-vi-	.	2B-\	-vi-	.	2b-\	-vi-	.	2cc\	.	.	2c/	.	2g\	.	2gg\	.	2bb-\	.
.	.	.	.	.	16cc\	.	16ee\	.	.	.	.	.	.	.	.	.	.	.	.	.	.	.	.	.	.	.	.	.	.
8G\	.	.	8e\	.	16cc\	.	16dd\	.	.	.	.	.	.	.	.	.	.	.	.	.	.	.	.	.	.	.	.	.	.
.	.	.	.	.	16cc\	.	16cc\JJ	.	.	.	.	.	.	.	.	.	.	.	.	.	.	.	.	.	.	.	.	.	.
8E\	6 5	.	8g\	.	16cc\	.	16cc\LL	.	.	4E\)	.	.	.	.	.	.	.	.	.	.	.	.	.	.	.	.	.	.	.
.	.	.	.	.	16cc\	.	16ee\	.	.	.	.	.	.	.	.	.	.	.	.	.	.	.	.	.	.	.	.	.	.
8E\	.	.	8g\	.	16cc\	.	16gg\	.	.	.	.	.	.	.	.	.	.	.	.	.	.	.	.	.	.	.	.	.	.
.	.	.	.	.	16cc\	.	16bb-\JJ	.	.	.	.	.	.	.	.	.	.	.	.	.	.	.	.	.	.	.	.	.	.
8F\	.	.	8f\	.	16cc\	.	16bb-\LL	.	.	4F\	-si-	.	4A\	-si-	.	4a\	-si-	.	4cc\	-si-	.	4f\	.	4a\	.	4ff\	.	4aa\	.
.	.	.	.	.	16cc\	.	16aa\	.	.	.	.	.	.	.	.	.	.	.	.	.	.	.	.	.	.	.	.	.	.
8F\J	.	.	8f\J	.	16cc\	.	16gg\	.	.	.	.	.	.	.	.	.	.	.	.	.	.	.	.	.	.	.	.	.	.
.	.	.	.	.	16cc\JJ	.	16ff\JJ	.	.	.	.	.	.	.	.	.	.	.	.	.	.	.	.	.	.	.	.	.	.
!	!	!	!	!	!	!	!	!	!	!	!	!	!LO:LB:g=original	!	!	!	!	!	!	!	!	!LO:LB:g=original	!	!LO:LB:g=original	!	!	!	!	!
=10	=10	=10	=10	=10	=10	=10	=10	=10	=10	=10	=10	=10	=10	=10	=10	=10	=10	=10	=10	=10	=10	=10	=10	=10	=10	=10	=10	=10	=10
4C/	.	.	4c\	.	4g/	.	16ff\LL	.	2.ryy	8c\	-bi-	.	8e\	-bi-	.	8g\	-bi-	.	8cc\	-bi-	.	4c/	.	4g\	.	4ee\	.	4gg\	.
.	.	.	.	.	.	.	16ee\	.	.	.	.	.	.	.	.	.	.	.	.	.	.	.	.	.	.	.	.	.	.
.	.	.	.	.	.	.	16dd\	.	.	8C/	-li-	.	8e\	-li-	.	8g\	-li-	.	8cc\	-li-	.	.	.	.	.	.	.	.	.
.	.	.	.	.	.	.	16cc\JJ	.	.	.	.	.	.	.	.	.	.	.	.	.	.	.	.	.	.	.	.	.	.
4c\	.	.	4c\	.	4e/	.	8cc\L	.	.	4C/	-um	.	4e\	-um	.	4g\	-um	.	4cc\	-um	.	4c/	.	4g\	.	4ee\	.	4gg\	.
.	.	.	.	.	.	.	16gg\L	.	.	.	.	.	.	.	.	.	.	.	.	.	.	.	.	.	.	.	.	.	.
.	.	.	.	.	.	.	16ee\JJ	.	.	.	.	.	.	.	.	.	.	.	.	.	.	.	.	.	.	.	.	.	.
4r	.	.	4r	.	4r	.	8cc\L	.	.	4r	.	.	4r	.	.	4r	.	.	4r	.	.	4r	.	4r	.	4r	.	4r	.
.	.	.	.	.	.	.	8cc\J	.	.	.	.	.	.	.	.	.	.	.	.	.	.	.	.	.	.	.	.	.	.
!	!	!	!LO:LB:g=original	!	!LO:LB:g=original	!	!	!	!	!LO:LB:g=original	!	!	!	!	!	!	!	!	!LO:LB:g=original	!	!	!	!	!	!	!LO:LB:g=original	!	!	!
=11	=11	=11	=11	=11	=11	=11	=11	=11	=11	=11	=11	=11	=11	=11	=11	=11	=11	=11	=11	=11	=11	=11	=11	=11	=11	=11	=11	=11	=11
*tremolo	*	*	*tremolo	*	*	*	*	*	*	*2\right	*	*	*	*	*	*	*	*	*	*	*	*	*	*	*	*	*	*	*
8G\L	.	.	8Bn/L	.	16d/LL	.	16bn\LL	.	2.ryy	2G\	et	.	2d\	et	.	2g\	et	.	2bn\	et	.	4g\	.	4g\	.	2gg\	.	2gg\	.
.	.	.	.	.	16d/	.	16cc\	.	.	.	.	.	.	.	.	.	.	.	.	.	.	.	.	.	.	.	.	.	.
8G\	.	.	8Bn/	.	16d/	.	16b\	.	.	.	.	.	.	.	.	.	.	.	.	.	.	.	.	.	.	.	.	.	.
.	.	.	.	.	16d/	.	16cc\JJ	.	.	.	.	.	.	.	.	.	.	.	.	.	.	.	.	.	.	.	.	.	.
*	*	*	*	*	*	*	*	*	*	*	*	*	*	*	*	*	*	*	*	*	*	*2\right	*	*	*	*	*	*	*
8G\	.	.	8Bn/	.	16d/	.	16dd\LL	.	.	.	.	.	.	.	.	.	.	.	.	.	.	2g\	.	2g\	.	.	.	.	.
.	.	.	.	.	16d/	.	16ee\	.	.	.	.	.	.	.	.	.	.	.	.	.	.	.	.	.	.	.	.	.	.
8G\J	.	.	8Bn/J	.	16d/	.	16dd\	.	.	.	.	.	.	.	.	.	.	.	.	.	.	.	.	.	.	.	.	.	.
.	.	.	.	.	16d/JJ	.	16ee\JJ	.	.	.	.	.	.	.	.	.	.	.	.	.	.	.	.	.	.	.	.	.	.
*Xtremolo	*	*	*Xtremolo	*	*Xtremolo	*	*	*	*	*	*	*	*	*	*	*	*	*	*	*	*	*	*	*	*	*	*	*	*
8Bn\L	6 5	.	8d\L	.	16g/LL	.	8ff\L	.	.	4BBn/	in	.	4Bn\	in	.	4g\	in	.	4dd\	in	.	.	.	.	.	4ff\	.	4gg\	.
.	.	.	.	.	16g/	.	.	.	.	.	.	.	.	.	.	.	.	.	.	.	.	.	.	.	.	.	.	.	.
8B\J	.	.	8d\J	.	16g/	.	16ee\L	.	.	.	.	.	.	.	.	.	.	.	.	.	.	.	.	.	.	.	.	.	.
.	.	.	.	.	16g/JJ	.	16dd\JJ	.	.	.	.	.	.	.	.	.	.	.	.	.	.	.	.	.	.	.	.	.	.
=12	=12	=12	=12	=12	=12	=12	=12	=12	=12	=12	=12	=12	=12	=12	=12	=12	=12	=12	=12	=12	=12	=12	=12	=12	=12	=12	=12	=12	=12
*	*	*	*	*	*tremolo	*	*	*	*	*	*	*	*	*	*	*	*	*	*	*	*	*	*	*	*	*	*	*	*
8c\L	3	.	8c\L	.	16g/LL	.	16ee\LL	.	2.ryy	8C/	u-	.	8c\	u-	.	8g\	u-	.	8ee\	u-	.	2.c/	.	2.g\	.	4ee\	.	4gg\	.
.	.	.	.	.	16g/	.	16gg\	.	.	.	.	.	.	.	.	.	.	.	.	.	.	.	.	.	.	.	.	.	.
8e\	_	.	8e\	.	16g/	.	16ccc\	.	.	8E\	-num	.	8c\	-num	.	8g\	-num	.	8ee\	-num	.	.	.	.	.	.	.	.	.
.	.	.	.	.	16g/	.	16gg\JJ	.	.	.	.	.	.	.	.	.	.	.	.	.	.	.	.	.	.	.	.	.	.
!	!	!	!	!	!	!	!LO:LB:g=original	!	!	!	!	!	!	!	!	!	!	!	!	!	!	!	!	!	!	!	!	!	!
8d\	.	.	8d\	.	16g/	.	16ff\LL	.	.	8D/L	Do-	.	8Bn\L	Do-	.	4g\	Do-	.	8ff\L	Do-	.	.	.	.	.	4gg\	.	8ff\L	.
.	.	.	.	.	16g/	.	16gg\	.	.	.	.	.	.	.	.	.	.	.	.	.	.	.	.	.	.	.	.	.	.
8Bn\	.	.	8Bn\	.	16g/	.	16dd\	.	.	8BBn/J	.	.	8d\J	.	.	.	.	.	8dd\J	.	.	.	.	.	.	.	.	8dd\	.
.	.	.	.	.	16g/	.	16gg\JJ	.	.	.	.	.	.	.	.	.	.	.	.	.	.	.	.	.	.	.	.	.	.
8c\	.	.	8c\	.	16g/	.	16ee\LL	.	.	8C/	-mi-	.	8c\	-mi-	.	8g\	-mi-	.	8ee\	-mi-	.	.	.	.	.	4gg\	.	8ee\	.
.	.	.	.	.	16g/	.	16gg\	.	.	.	.	.	.	.	.	.	.	.	.	.	.	.	.	.	.	.	.	.	.
8e\J	6	.	8e\J	.	16g/	.	16cc\	.	.	8E\	-num	.	8e\	-num	.	8g\	-num	.	8cc\	-num	.	.	.	.	.	.	.	8cc\J	.
.	.	.	.	.	16g/JJ	.	16gg\JJ	.	.	.	.	.	.	.	.	.	.	.	.	.	.	.	.	.	.	.	.	.	.
=13	=13	=13	=13	=13	=13	=13	=13	=13	=13	=13	=13	=13	=13	=13	=13	=13	=13	=13	=13	=13	=13	=13	=13	=13	=13	=13	=13	=13	=13
*tremolo	*	*	*tremolo	*	*	*	*	*	*	*	*	*	*	*	*	*	*	*	*	*	*	*	*	*	*	*	*	*	*
!	!	!	!	!	!	!	!LO:TX:t=P:problem=takty 13-14 - repetycja	!	!	!	!	!	!	!	!	!	!	!	!	!	!	!	!	!	!	!	!	!	!
8G\L	n	.	8Bn/L	.	16g/LL	.	16bn\LLyy	.	2.ryy	2G\	Je-	.	2d\	Je-	.	2g\	Je-	.	2bn\	Je-	.	4g\	.	4g\	.	2gg\	.	2gg\	.
.	.	.	.	.	16g/	.	16cc\yy	.	.	.	.	.	.	.	.	.	.	.	.	.	.	.	.	.	.	.	.	.	.
8G\	.	.	8Bn/	.	16g/	.	16b\yy	.	.	.	.	.	.	.	.	.	.	.	.	.	.	.	.	.	.	.	.	.	.
.	.	.	.	.	16g/	.	16cc\JJyy	.	.	.	.	.	.	.	.	.	.	.	.	.	.	.	.	.	.	.	.	.	.
*	*	*	*	*	*	*	*	*	*	*	*	*	*	*	*	*	*	*	*	*	*	*tremolo	*	*tremolo	*	*	*	*	*
8G\	.	.	8Bn/	.	16g/	.	16dd\LLyy	.	.	.	.	.	.	.	.	.	.	.	.	.	.	8g\L	.	8g\L	.	.	.	.	.
.	.	.	.	.	16g/	.	16ee\yy	.	.	.	.	.	.	.	.	.	.	.	.	.	.	.	.	.	.	.	.	.	.
8G\J	.	.	8Bn/J	.	16g/	.	16dd\yy	.	.	.	.	.	.	.	.	.	.	.	.	.	.	8g\	.	8g\	.	.	.	.	.
.	.	.	.	.	16g/	.	16ee\JJyy	.	.	.	.	.	.	.	.	.	.	.	.	.	.	.	.	.	.	.	.	.	.
*Xtremolo	*	*	*Xtremolo	*	*	*	*	*	*	*	*	*	*	*	*	*	*	*	*	*	*	*	*	*	*	*	*	*	*
8Bn\L	6 5	.	8d\L	.	16g/	.	8ff\Lyy	.	.	4BBn/	-sum	.	4Bn\	-sum	.	4g\	-sum	.	4dd\	-sum	.	8g\	.	8g\	.	4ff\	.	4gg\	.
.	.	.	.	.	16g/	.	.	.	.	.	.	.	.	.	.	.	.	.	.	.	.	.	.	.	.	.	.	.	.
8B\J	.	.	8d\J	.	16g/	.	16ee\Lyy	.	.	.	.	.	.	.	.	.	.	.	.	.	.	8g\J	.	8g\J	.	.	.	.	.
.	.	.	.	.	16g/JJ	.	16dd\JJyy	.	.	.	.	.	.	.	.	.	.	.	.	.	.	.	.	.	.	.	.	.	.
*	*	*	*	*	*	*	*	*	*	*	*	*	*	*	*	*	*	*	*	*	*	*Xtremolo	*	*Xtremolo	*	*	*	*	*
!	!	!	!	!	!	!	!	!	!	!	!	!	!	!	!	!LO:LB:g=original	!	!	!	!	!	!	!	!	!	!	!	!	!
=14	=14	=14	=14	=14	=14	=14	=14	=14	=14	=14	=14	=14	=14	=14	=14	=14	=14	=14	=14	=14	=14	=14	=14	=14	=14	=14	=14	=14	=14
!	!	!	!	!	!	!	!	!	!	!	!LO:MO:mod=Chris-	!	!	!LO:MO:mod=Chris-	!	!	!LO:MO:mod=Chris-	!	!	!LO:MO:mod=Chris-	!	!	!	!	!	!	!	!	!
8c\L	.	.	8c\L	.	16g/LL	.	16ee\LLyy	.	2.ryy	8C/	X-	.	8c\	X-	.	4g\	X-	.	8ee\	X-	.	2c/	.	2.g\	.	4ee\	.	4gg\	.
.	.	.	.	.	16g/	.	16gg\yy	.	.	.	.	.	.	.	.	.	.	.	.	.	.	.	.	.	.	.	.	.	.
8e\	6	.	8e\	.	16g/	.	16ccc\yy	.	.	8E\	-tum	.	8c\	-tum	.	.	.	.	8ee\	-tum	.	.	.	.	.	.	.	.	.
.	.	.	.	.	16g/	.	16gg\JJyy	.	.	.	.	.	.	.	.	.	.	.	.	.	.	.	.	.	.	.	.	.	.
8d\	3	.	8d\	.	16g/	.	16ff\LLyy	.	.	8D/L	Fi-	.	8Bn\L	Fi-	.	8g\	-tum	.	8ff\L	Fi-	.	.	.	.	.	4gg\	.	8ff\L	.
.	.	.	.	.	16g/	.	16gg\yy	.	.	.	.	.	.	.	.	.	.	.	.	.	.	.	.	.	.	.	.	.	.
!LO:SIC:v:s=8Bn	!	!	!LO:SIC:v:s=8Bn	!	!	!	!	!	!	!	!	!	!	!	!	!	!	!	!	!	!	!	!	!	!	!	!	!	!
8B-\	3	.	8B-\	.	16g/	.	16dd\yy	.	.	8BBn/J	.	.	8d\J	.	.	8g\	fi-	.	8dd\J	.	.	.	.	.	.	.	.	8dd\	.
.	.	.	.	.	16g/	.	16gg\JJyy	.	.	.	.	.	.	.	.	.	.	.	.	.	.	.	.	.	.	.	.	.	.
8c\	3	.	8c\	.	16g/	.	16ee\LLyy	.	.	8C/	-li-	.	8c\	-li-	.	8g\	-li-	.	8ee\	-li-	.	4c/	.	.	.	4gg\	.	8ee\	.
.	.	.	.	.	16g/	.	16gg\yy	.	.	.	.	.	.	.	.	.	.	.	.	.	.	.	.	.	.	.	.	.	.
8e\J	6	.	8e\J	.	16g/	.	16cc\yy	.	.	8E\	-um	.	8e\	-um	.	8g\	-um	.	8cc\	-um	.	.	.	.	.	.	.	8cc\J	.
.	.	.	.	.	16g/JJ	.	16gg\JJyy	.	.	.	.	.	.	.	.	.	.	.	.	.	.	.	.	.	.	.	.	.	.
*	*	*	*	*	*Xtremolo	*	*	*	*	*	*	*	*	*	*	*	*	*	*	*	*	*	*	*	*	*	*	*	*
!	!	!	!	!	!	!	!	!	!	!	!	!	!LO:LB:g=original	!	!	!	!	!	!	!	!	!	!	!	!	!	!	!	!
=15	=15	=15	=15	=15	=15	=15	=15	=15	=15	=15	=15	=15	=15	=15	=15	=15	=15	=15	=15	=15	=15	=15	=15	=15	=15	=15	=15	=15	=15
*	*	*	*	*	*	*	*2\right	*	*	*	*	*	*	*	*	*	*	*	*	*	*	*	*	*	*	*	*	*	*
*	*	*	*	*	*	*	*tremolo	*	*	*	*	*	*	*	*	*	*	*	*	*	*	*	*	*	*	*	*	*	*
8G\L	8 3	.	8G/L	.	8bn\L	.	16gg\LL	.	2.ryy	8G\L	De-	.	2G/	De-	.	8bn\L	De-	.	2gg\	De-	.	2g\	.	2g\	.	8bn\L	.	2gg\	.
.	.	.	.	.	.	.	16gg\	.	.	.	.	.	.	.	.	.	.	.	.	.	.	.	.	.	.	.	.	.	.
8A\	3	.	8A/	.	8cc\	.	16gg\	.	.	8A\	.	.	.	.	.	8cc\	.	.	.	.	.	.	.	.	.	8cc\	.	.	.
.	.	.	.	.	.	.	16gg\	.	.	.	.	.	.	.	.	.	.	.	.	.	.	.	.	.	.	.	.	.	.
8Bn\	3	.	8Bn/	.	8dd\	.	16gg\	.	.	8Bn\	.	.	.	.	.	8dd\	.	.	.	.	.	.	.	.	.	8dd\	.	.	.
.	.	.	.	.	.	.	16gg\	.	.	.	.	.	.	.	.	.	.	.	.	.	.	.	.	.	.	.	.	.	.
8G\	_	.	8G/	.	8b\	.	16gg\	.	.	8G\J	.	.	.	.	.	8b\J	.	.	.	.	.	.	.	.	.	8b\	.	.	.
.	.	.	.	.	.	.	16gg\JJ	.	.	.	.	.	.	.	.	.	.	.	.	.	.	.	.	.	.	.	.	.	.
8A\	.	.	8A/	.	8cc\	.	16ff\LL	.	.	8A\L	-i	.	4G/	-i	.	8cc\L	-i	.	4ff\	-i	.	4r	.	4r	.	8cc\	.	4ff\	.
.	.	.	.	.	.	.	16ff\	.	.	.	.	.	.	.	.	.	.	.	.	.	.	.	.	.	.	.	.	.	.
8B\J	6	.	8B/J	.	8dd\J	.	16ff\	.	.	8B\J	.	.	.	.	.	8dd\J	.	.	.	.	.	.	.	.	.	8dd\J	.	.	.
.	.	.	.	.	.	.	16ff\JJ	.	.	.	.	.	.	.	.	.	.	.	.	.	.	.	.	.	.	.	.	.	.
*	*	*	*	*	*	*	*Xtremolo	*	*	*	*	*	*	*	*	*	*	*	*	*	*	*	*	*	*	*	*	*	*
=16	=16	=16	=16	=16	=16	=16	=16	=16	=16	=16	=16	=16	=16	=16	=16	=16	=16	=16	=16	=16	=16	=16	=16	=16	=16	=16	=16	=16	=16
*	*	*	*	*	*tremolo	*	*	*	*	*	*	*	*	*	*	*	*	*	*	*	*	*	*	*	*	*	*	*	*
8C\L	_	.	8c\L	.	16cc\LL	.	8ee\L	.	2.ryy	8C/L	u-	.	2c\	u-	.	2cc\	u-	.	8ee\L	u-	.	2c/	.	2c/	.	2cc\	.	8ee\L	.
.	.	.	.	.	16cc\	.	.	.	.	.	.	.	.	.	.	.	.	.	.	.	.	.	.	.	.	.	.	.	.
8D\	.	.	8d\	.	16cc\	.	8ff\	.	.	8D/	.	.	.	.	.	.	.	.	8ff\	.	.	.	.	.	.	.	.	8ff\	.
.	.	.	.	.	16cc\	.	.	.	.	.	.	.	.	.	.	.	.	.	.	.	.	.	.	.	.	.	.	.	.
8E\	.	.	8e\	.	16cc\	.	8gg\	.	.	8E/	.	.	.	.	.	.	.	.	8gg\	.	.	.	.	.	.	.	.	8gg\	.
.	.	.	.	.	16cc\	.	.	.	.	.	.	.	.	.	.	.	.	.	.	.	.	.	.	.	.	.	.	.	.
8C\	.	.	8c\	.	16cc\	.	8ee\	.	.	8C/J	.	.	.	.	.	.	.	.	8ee\J	.	.	.	.	.	.	.	.	8ee\	.
.	.	.	.	.	16cc\JJ	.	.	.	.	.	.	.	.	.	.	.	.	.	.	.	.	.	.	.	.	.	.	.	.
*	*	*	*	*	*Xtremolo	*	*	*	*	*	*	*	*	*	*	*	*	*	*	*	*	*	*	*	*	*	*	*	*
8D\	.	.	8d\	.	16bn/LL	.	8ff\	.	.	8D\L	-ni-	.	4c\	-ni-	.	4bn\	-ni-	.	8ff\L	-ni-	.	4r	.	4r	.	4bn/	.	8ff\	.
.	.	.	.	.	16b/	.	.	.	.	.	.	.	.	.	.	.	.	.	.	.	.	.	.	.	.	.	.	.	.
8E\J	.	.	8e\J	.	16b/	.	8gg\J	.	.	8E\J	.	.	.	.	.	.	.	.	8gg\J	.	.	.	.	.	.	.	.	8gg\J	.
.	.	.	.	.	16b/JJ	.	.	.	.	.	.	.	.	.	.	.	.	.	.	.	.	.	.	.	.	.	.	.	.
!LO:LB:g=original	!	!	!	!	!	!	!	!	!	!LO:LB:g=original	!	!	!	!	!	!	!	!	!LO:LB:g=original	!	!	!	!	!	!	!	!	!	!
=17	=17	=17	=17	=17	=17	=17	=17	=17	=17	=17	=17	=17	=17	=17	=17	=17	=17	=17	=17	=17	=17	=17	=17	=17	=17	=17	=17	=17	=17
*	*	*	*	*	*	*	*tremolo	*	*	*	*	*	*	*	*	*	*	*	*	*	*	*	*	*	*	*	*	*	*
8F\L	.	.	8f\L	.	8a/L	.	16ff\LL	.	2.ryy	8F\L	-ge-	.	4.f\	-ge-	.	8a\L	-ge-	.	4.ff\	-ge-	.	0.r	.	0.r	.	8a/L	.	2ff\	.
.	.	.	.	.	.	.	16ff\	.	.	.	.	.	.	.	.	.	.	.	.	.	.	.	.	.	.	.	.	.	.
!	!	!	!	!	!	!	!	!	!	!	!	!	!	!	!	!LO:SIC:v:s=8bnJ	!	!	!	!	!	!	!	!	!	!	!	!	!
8G\	.	.	8g\	.	8bn/	.	16ff\	.	.	8G\J	.	.	.	.	.	8b-X\J	.	.	.	.	.	.	.	.	.	8bn/	.	.	.
.	.	.	.	.	.	.	16ff\	.	.	.	.	.	.	.	.	.	.	.	.	.	.	.	.	.	.	.	.	.	.
8A\	.	.	8a\	.	8cc/	.	16ff\	.	.	8A\L	.	.	.	.	.	8cc\L	-ni-	.	.	.	.	.	.	.	.	8cc/	.	.	.
.	.	.	.	.	.	.	16ff\	.	.	.	.	.	.	.	.	.	.	.	.	.	.	.	.	.	.	.	.	.	.
8F\	.	.	8f\	.	8a/	.	16ff\	.	.	8F\J	.	.	8f\	-ni-	.	8a\J	.	.	8ff\	-ni-	.	.	.	.	.	8a/	.	.	.
.	.	.	.	.	.	.	16ff\JJ	.	.	.	.	.	.	.	.	.	.	.	.	.	.	.	.	.	.	.	.	.	.
!	!	!	!	!	!	!	!	!	!	!	!	!	!	!	!	!LO:SIC:v:s=8bL	!	!	!	!	!	!	!	!	!	!	!	!	!
8G\	.	.	8g\	.	8b/	.	16ee\LL	.	.	8G\	-ni-	.	4f\	-tum	.	8b-\L	-tum	.	4ee\	-tum	.	.	.	.	.	8b/	.	4ee\	.
.	.	.	.	.	.	.	16ee\	.	.	.	.	.	.	.	.	.	.	.	.	.	.	.	.	.	.	.	.	.	.
8A\J	.	.	8a\J	.	8cc/J	.	16ee\	.	.	8A\	-tum	.	.	.	.	8cc\J	.	.	.	.	.	.	.	.	.	8cc/J	.	.	.
.	.	.	.	.	.	.	16ee\JJ	.	.	.	.	.	.	.	.	.	.	.	.	.	.	.	.	.	.	.	.	.	.
*	*	*	*	*	*	*	*Xtremolo	*	*	*	*	*	*	*	*	*	*	*	*	*	*	*	*	*	*	*	*	*	*
!	!	!	!	!	!	!	!	!	!	!	!	!	!	!	!	!	!	!	!	!	!	!	!	!	!	!	!	!LO:LB:g=original	!
=18	=18	=18	=18	=18	=18	=18	=18	=18	=18	=18	=18	=18	=18	=18	=18	=18	=18	=18	=18	=18	=18	=18	=18	=18	=18	=18	=18	=18	=18
*	*	*	*	*	*tremolo	*	*	*	*	*	*	*	*	*	*	*	*	*	*	*	*	*	*	*	*	*	*	*	*
8BBn/L	.	.	8Bn/L	.	16bn/LL	.	8dd\L	.	2.ryy	8BBn/	et	.	8f\	et	.	2bn\	et	.	8dd\	et	.	.	.	.	.	2bn/	.	8dd\L	.
.	.	.	.	.	16bn/	.	.	.	.	.	.	.	.	.	.	.	.	.	.	.	.	.	.	.	.	.	.	.	.
8C/	.	.	8c/	.	16bn/	.	8ee\	.	.	8C/	ex	.	8e\	ex	.	.	.	.	8ee\	ex	.	.	.	.	.	.	.	8ee\	.
.	.	.	.	.	16bn/	.	.	.	.	.	.	.	.	.	.	.	.	.	.	.	.	.	.	.	.	.	.	.	.
8D/	.	.	8d/	.	16bn/	.	8ff\	.	.	8D/	Pa-	.	8d\	Pa-	.	.	.	.	8ff\	Pa-	.	.	.	.	.	.	.	8ff\	.
.	.	.	.	.	16bn/	.	.	.	.	.	.	.	.	.	.	.	.	.	.	.	.	.	.	.	.	.	.	.	.
8BB/	.	.	8B/	.	16bn/	.	8dd\	.	.	8BB/	-tre	.	8f\	-tre	.	.	.	.	8dd\	-tre	.	.	.	.	.	.	.	8dd\	.
.	.	.	.	.	16bn/JJ	.	.	.	.	.	.	.	.	.	.	.	.	.	.	.	.	.	.	.	.	.	.	.	.
8C/	.	.	8c/	.	16a/LL	.	8ee\	.	.	8C/	na-	.	8e\	na-	.	4a\	ex	.	8ee\	na-	.	.	.	.	.	4a/	.	8ee\	.
.	.	.	.	.	16a/	.	.	.	.	.	.	.	.	.	.	.	.	.	.	.	.	.	.	.	.	.	.	.	.
8D/J	.	.	8d/J	.	16a/	.	8ff\J	.	.	8D/	-tum	.	8d\	-tum	.	.	.	.	8ff\	-tum	.	.	.	.	.	.	.	8ff\J	.
.	.	.	.	.	16a/JJ	.	.	.	.	.	.	.	.	.	.	.	.	.	.	.	.	.	.	.	.	.	.	.	.
*	*	*	*	*	*Xtremolo	*	*	*	*	*	*	*	*	*	*	*	*	*	*	*	*	*	*	*	*	*	*	*	*
!	!	!	!LO:LB:g=original	!	!	!	!	!	!	!	!	!	!	!	!	!	!	!	!	!	!	!	!	!	!	!	!	!	!
=19	=19	=19	=19	=19	=19	=19	=19	=19	=19	=19	=19	=19	=19	=19	=19	=19	=19	=19	=19	=19	=19	=19	=19	=19	=19	=19	=19	=19	=19
*	*	*	*	*	*	*	*tremolo	*	*	*	*	*	*	*	*	*	*	*	*	*	*	*	*	*	*	*	*	*	*
8E\L	.	.	8e\L	.	8g#X/L	.	16ee\LL	.	2.ryy	8E\	an-	.	2e\	an-	.	8g#X\	Pa-	.	2ee\	an-	.	.	.	.	.	2.ee\	.	2ee\	.
.	.	.	.	.	.	.	16ee\	.	.	.	.	.	.	.	.	.	.	.	.	.	.	.	.	.	.	.	.	.	.
8F\	.	.	8f\	.	8a/	.	16ee\	.	.	8F\	-te	.	.	.	.	8a\	-tre	.	.	.	.	.	.	.	.	.	.	.	.
.	.	.	.	.	.	.	16ee\	.	.	.	.	.	.	.	.	.	.	.	.	.	.	.	.	.	.	.	.	.	.
!LO:SIC:v:s=8G#	!	!	!	!	!	!	!	!	!	!	!	!	!	!	!	!LO:SIC:v:s=8bnL	!	!	!	!	!	!	!	!	!	!	!	!	!
8G\	.	.	8g#X\	.	8bn/	.	16ee\	.	.	8G#X\L	o-	.	.	.	.	8b-\L	na-	.	.	.	.	.	.	.	.	.	.	.	.
.	.	.	.	.	.	.	16ee\	.	.	.	.	.	.	.	.	.	.	.	.	.	.	.	.	.	.	.	.	.	.
8E\	.	.	8e\	.	8g#/	.	16ee\	.	.	8E\J	.	.	.	.	.	8g#\J	.	.	.	.	.	.	.	.	.	.	.	.	.
.	.	.	.	.	.	.	16ee\JJ	.	.	.	.	.	.	.	.	.	.	.	.	.	.	.	.	.	.	.	.	.	.
8F\	.	.	8f\	.	8a/	.	16dd\LL	.	.	8F\	-mni-	.	4e\	-te	.	8a\L	-tum	.	4dd\	-te	.	.	.	.	.	.	.	4ddd\	.
.	.	.	.	.	.	.	16dd\	.	.	.	.	.	.	.	.	.	.	.	.	.	.	.	.	.	.	.	.	.	.
!	!	!	!	!	!	!	!	!	!	!	!	!	!	!	!	!LO:SIC:v:s=8bJ	!	!	!	!	!	!	!	!	!	!	!	!	!
8G\J	.	.	8g#\J	.	8b/J	.	16dd\	.	.	8G#\	-a	.	.	.	.	8b-\J	.	.	.	.	.	.	.	.	.	.	.	.	.
.	.	.	.	.	.	.	16dd\JJ	.	.	.	.	.	.	.	.	.	.	.	.	.	.	.	.	.	.	.	.	.	.
*	*	*	*	*	*	*	*Xtremolo	*	*	*	*	*	*	*	*	*	*	*	*	*	*	*	*	*	*	*	*	*	*
!	!	!	!	!	!LO:LB:g=original	!	!	!	!	!	!	!	!	!	!	!LO:LB:g=original	!	!	!	!	!	!	!	!	!	!	!	!	!
=20	=20	=20	=20	=20	=20	=20	=20	=20	=20	=20	=20	=20	=20	=20	=20	=20	=20	=20	=20	=20	=20	=20	=20	=20	=20	=20	=20	=20	=20
*	*	*	*	*	*tremolo	*	*	*	*	*	*	*	*	*	*	*	*	*	*	*	*	*	*	*	*	*	*	*	*
8A\L	.	.	8A/L	.	16a/LL	.	8cc#X\L	.	2.ryy	8A\	ſae-	.	8e\L	o-	.	2a\	an-	.	8cc#X\L	o-	.	.	.	.	.	2aa\	.	8ccc#X\L	.
.	.	.	.	.	16a/	.	.	.	.	.	.	.	.	.	.	.	.	.	.	.	.	.	.	.	.	.	.	.	.
!LO:SIC:v:s=8Bn	!	!	!	!	!	!	!	!	!	!	!	!	!	!	!	!	!	!	!	!	!	!	!	!	!	!	!	!	!
8B-\	.	.	8Bn/	.	16a/	.	8dd\	.	.	8Bn\	-cu-	.	8d\J	.	.	.	.	.	8dd\J	.	.	.	.	.	.	.	.	8ddd\	.
.	.	.	.	.	16a/	.	.	.	.	.	.	.	.	.	.	.	.	.	.	.	.	.	.	.	.	.	.	.	.
8c#X\	.	.	8c#X/	.	16a/	.	8ee\	.	.	8c#X\	-la	.	8c#X\L	-mni-	.	.	.	.	8ee\L	-mni-	.	.	.	.	.	.	.	8eee\	.
.	.	.	.	.	16a/	.	.	.	.	.	.	.	.	.	.	.	.	.	.	.	.	.	.	.	.	.	.	.	.
8A\	.	.	8A/	.	16a/	.	8cc#\	.	.	8A\	De-	.	8e\J	.	.	.	.	.	8cc#\J	.	.	.	.	.	.	.	.	8ccc#\	.
.	.	.	.	.	16a/JJ	.	.	.	.	.	.	.	.	.	.	.	.	.	.	.	.	.	.	.	.	.	.	.	.
*	*	*	*	*	*Xtremolo	*	*	*	*	*	*	*	*	*	*	*	*	*	*	*	*	*	*	*	*	*	*	*	*
!LO:SIC:v:s=8Bn	!	!	!	!	!	!	!	!	!	!	!	!	!	!	!	!	!	!	!	!	!	!	!	!	!	!	!	!	!
8B-\	.	.	8B/	.	16gn/LL	.	8dd\	.	.	8B\	-um	.	8d\L	-a	.	4g\	-te	.	8dd\L	-a	.	.	.	.	.	4gg\	.	8ddd\	.
.	.	.	.	.	16g/	.	.	.	.	.	.	.	.	.	.	.	.	.	.	.	.	.	.	.	.	.	.	.	.
8c#\J	.	.	8c#/J	.	16g/	.	8ee\J	.	.	8c#\	de	.	8c#\J	.	.	.	.	.	8ee\J	.	.	.	.	.	.	.	.	8eee\J	.
.	.	.	.	.	16g/JJ	.	.	.	.	.	.	.	.	.	.	.	.	.	.	.	.	.	.	.	.	.	.	.	.
!	!	!	!	!	!	!	!	!	!	!LO:LB:g=original	!	!	!LO:LB:g=original	!	!	!	!	!	!	!	!	!	!	!	!	!LO:LB:g=original	!	!	!
=21	=21	=21	=21	=21	=21	=21	=21	=21	=21	=21	=21	=21	=21	=21	=21	=21	=21	=21	=21	=21	=21	=21	=21	=21	=21	=21	=21	=21	=21
*	*	*	*	*	*	*	*tremolo	*	*	*	*	*	*	*	*	*	*	*	*	*	*	*	*	*	*	*	*	*	*
!	!	!	!	!	!	!	!	!	!	!	!	!	!	!	!	!	!	!	!	!	!	!	!	!	!	!LO:SIC:v:s=8ff#	!	!	!
8D\L	.	.	8d\L	.	8f#X/L	.	16dd\LL	.	2.ryy	8D\L	De-	.	4.d\	ſae-	.	8f#X\	o-	.	4.dd\	ſae-	.	1.r	.	1.r	.	8ff\L	.	2ddd\	.
.	.	.	.	.	.	.	16dd\	.	.	.	.	.	.	.	.	.	.	.	.	.	.	.	.	.	.	.	.	.	.
8E\	.	.	8e\	.	8g/	.	16dd\	.	.	8E\J	.	.	.	.	.	8g\	-mni-	.	.	.	.	.	.	.	.	8gg\	.	.	.
.	.	.	.	.	.	.	16dd\	.	.	.	.	.	.	.	.	.	.	.	.	.	.	.	.	.	.	.	.	.	.
!LO:SIC:v:s=8F#	!	!	!	!	!	!	!	!	!	!LO:SIC:v:s=8F#	!	!	!	!	!	!	!	!	!	!	!	!	!	!	!	!	!	!	!
8F\	.	.	8f#X\	.	8a/	.	16dd\	.	.	8F\	-o	.	.	.	.	4a\	-a	.	.	.	.	.	.	.	.	8aa\	.	.	.
.	.	.	.	.	.	.	16dd\	.	.	.	.	.	.	.	.	.	.	.	.	.	.	.	.	.	.	.	.	.	.
!	!	!	!	!	!	!	!	!	!	!	!	!	!	!	!	!	!	!	!	!	!	!	!	!	!	!LO:SIC:v:s=8ff#	!	!	!
8D\	.	.	8d\	.	8f#/	.	16dd\	.	.	8D\	lu-	.	8d\	-cu-	.	.	.	.	8dd\	-cu-	.	.	.	.	.	8ff\	.	.	.
.	.	.	.	.	.	.	16dd\JJ	.	.	.	.	.	.	.	.	.	.	.	.	.	.	.	.	.	.	.	.	.	.
8E\	.	.	8e\	.	8g/	.	16ccn\LL	.	.	8E\	-men	.	4d\	-la	.	8g\	ſae-	.	4ccn\	-la	.	.	.	.	.	8gg\	.	4cccn\	.
.	.	.	.	.	.	.	16ccn\	.	.	.	.	.	.	.	.	.	.	.	.	.	.	.	.	.	.	.	.	.	.
!LO:SIC:v:s=8F#	!	!	!	!	!	!	!	!	!	!LO:SIC:v:s=8F#	!	!	!	!	!	!	!	!	!	!	!	!	!	!	!	!	!	!	!
8F\J	.	.	8f#\J	.	8a/J	.	16ccn\	.	.	8F\	de	.	.	.	.	8a\	-cu-	.	.	.	.	.	.	.	.	8aa\J	.	.	.
.	.	.	.	.	.	.	16ccn\JJ	.	.	.	.	.	.	.	.	.	.	.	.	.	.	.	.	.	.	.	.	.	.
*	*	*	*	*	*	*	*Xtremolo	*	*	*	*	*	*	*	*	*	*	*	*	*	*	*	*	*	*	*	*	*	*
!	!	!	!	!	!	!	!	!	!	!	!	!	!	!	!	!	!	!	!LO:LB:g=original	!	!	!	!	!	!	!	!	!	!
=22	=22	=22	=22	=22	=22	=22	=22	=22	=22	=22	=22	=22	=22	=22	=22	=22	=22	=22	=22	=22	=22	=22	=22	=22	=22	=22	=22	=22	=22
*	*	*	*	*	*tremolo	*	*	*	*	*	*	*	*	*	*	*	*	*	*	*	*	*	*	*	*	*	*	*	*
!	!	!	!	!	!	!	!	!	!	!	!	!	!	!	!	!	!	!	!LO:SIC:v:s=8bL	!	!	!	!	!	!	!	!	!LO:SIC:v:s=8bbn	!
8G\L	.	.	8G/L	.	16g/LL	.	8bn\L	.	2.ryy	8G\	lu-	.	4d\	De-	.	8g\	-la	.	8b-\L	De-	.	.	.	.	.	2.gg\	.	8bb-\L	.
.	.	.	.	.	16g/	.	.	.	.	.	.	.	.	.	.	.	.	.	.	.	.	.	.	.	.	.	.	.	.
8A\	.	.	8A/	.	16g/	.	8cc\	.	.	8A\	-mi-	.	.	.	.	8g\	De-	.	8cc\J	.	.	.	.	.	.	.	.	8ccc\	.
.	.	.	.	.	16g/	.	.	.	.	.	.	.	.	.	.	.	.	.	.	.	.	.	.	.	.	.	.	.	.
8Bn\	.	.	8Bn/	.	16g/	.	8dd\	.	.	8Bn\	-ne	.	4G/	-um	.	4g\	-um	.	8dd\L	-um	.	.	.	.	.	.	.	8ddd\	.
.	.	.	.	.	16g/	.	.	.	.	.	.	.	.	.	.	.	.	.	.	.	.	.	.	.	.	.	.	.	.
!	!	!	!	!	!	!	!	!	!	!	!	!	!	!	!	!	!	!	!LO:SIC:v:s=8bJ	!	!	!	!	!	!	!	!	!LO:SIC:v:s=8bbn	!
8G\	.	.	8G/	.	16g/	.	8b\	.	.	8G\L	De-	.	.	.	.	.	.	.	8b-\J	.	.	.	.	.	.	.	.	8bb-\	.
.	.	.	.	.	16g/	.	.	.	.	.	.	.	.	.	.	.	.	.	.	.	.	.	.	.	.	.	.	.	.
8A\	.	.	8A/	.	16g/	.	8cc\	.	.	8A\J	.	.	4G/	de	.	4g\	de	.	8cc\L	de	.	.	.	.	.	.	.	8ccc\	.
.	.	.	.	.	16g/	.	.	.	.	.	.	.	.	.	.	.	.	.	.	.	.	.	.	.	.	.	.	.	.
8B\J	.	.	8B/J	.	16g/	.	8dd\J	.	.	8B\	-um	.	.	.	.	.	.	.	8dd\J	.	.	.	.	.	.	.	.	8ddd\J	.
.	.	.	.	.	16g/JJ	.	.	.	.	.	.	.	.	.	.	.	.	.	.	.	.	.	.	.	.	.	.	.	.
!	!	!	!	!	!	!	!LO:LB:g=original	!	!	!	!	!	!	!	!	!	!	!	!	!	!	!	!	!	!	!	!	!	!
=23	=23	=23	=23	=23	=23	=23	=23	=23	=23	=23	=23	=23	=23	=23	=23	=23	=23	=23	=23	=23	=23	=23	=23	=23	=23	=23	=23	=23	=23
!	!	!	!	!	!	!	!	!	!	!	!LO:MO:mod=ve-	!	!	!	!	!	!	!	!	!	!	!	!	!	!	!	!	!	!
8A\L	.	.	8A/L	.	16g/LL	.	8cc#X\L	.	2.ryy	8A\L	Ve-	.	4A/	De-	.	4g\	De-	.	8cc#X\L	De-	.	2.r	.	2.r	.	2.gg\	.	8ccc#X\L	.
.	.	.	.	.	16g/	.	.	.	.	.	.	.	.	.	.	.	.	.	.	.	.	.	.	.	.	.	.	.	.
!LO:SIC:v:s=8Bn	!	!	!	!	!	!	!	!	!	!	!	!	!	!	!	!	!	!	!	!	!	!	!	!	!	!	!	!	!
8B-\	.	.	8Bn/	.	16g/	.	8dd\	.	.	8Bn\J	.	.	.	.	.	.	.	.	8dd\J	.	.	.	.	.	.	.	.	8ddd\	.
.	.	.	.	.	16g/	.	.	.	.	.	.	.	.	.	.	.	.	.	.	.	.	.	.	.	.	.	.	.	.
8c#X\	.	.	8c#X/	.	16g/	.	8ee\	.	.	8c#X\L	-rum	.	4A/	-o	.	4g\	-o	.	8ee\	-o	.	.	.	.	.	.	.	8eee\	.
.	.	.	.	.	16g/	.	.	.	.	.	.	.	.	.	.	.	.	.	.	.	.	.	.	.	.	.	.	.	.
8A\	.	.	8A/	.	16g/	.	8cc#\	.	.	8A\J	.	.	.	.	.	.	.	.	8cc#\	lu-	.	.	.	.	.	.	.	8ccc#\	.
.	.	.	.	.	16g/	.	.	.	.	.	.	.	.	.	.	.	.	.	.	.	.	.	.	.	.	.	.	.	.
!LO:SIC:v:s=8Bn	!	!	!	!	!	!	!	!	!	!	!	!	!	!	!	!	!	!	!	!	!	!	!	!	!	!	!	!	!
8B-\	.	.	8B/	.	16g/	.	8dd\	.	.	8B\L	de	.	4A/	lu-	.	4g\	lu-	.	8dd\	-men	.	.	.	.	.	.	.	8ddd\	.
.	.	.	.	.	16g/	.	.	.	.	.	.	.	.	.	.	.	.	.	.	.	.	.	.	.	.	.	.	.	.
8c#\J	.	.	8c#/J	.	16g/	.	8ee\J	.	.	8c#\J	.	.	.	.	.	.	.	.	8ee\	de	.	.	.	.	.	.	.	8eee\J	.
.	.	.	.	.	16g/JJ	.	.	.	.	.	.	.	.	.	.	.	.	.	.	.	.	.	.	.	.	.	.	.	.
*	*	*	*	*	*Xtremolo	*	*	*	*	*	*	*	*	*	*	*	*	*	*	*	*	*	*	*	*	*	*	*	*
!LO:LB:g=original	!	!	!	!	!	!	!	!	!	!	!	!	!	!	!	!	!	!	!	!	!	!	!	!	!	!	!	!	!
=24	=24	=24	=24	=24	=24	=24	=24	=24	=24	=24	=24	=24	=24	=24	=24	=24	=24	=24	=24	=24	=24	=24	=24	=24	=24	=24	=24	=24	=24
4d\	n	.	4A/	.	8f/	.	8ff\	.	2.ryy	2d\	De-	.	8d\	-men	.	8f\	-men	.	4.ff\	lu-	.	4A/	.	4a\	.	4ff\	.	4ddd\	.
.	.	.	.	.	4a/	.	4ff\	.	.	.	.	.	8d\	de	.	8a\	de	.	.	.	.	.	.	.	.	.	.	.	.
4d\	_	.	4d\	.	.	.	.	.	.	.	.	.	4d\	lu-	.	4a\	lu-	.	.	.	.	4A/	.	4a\	.	4dd\	.	4ff\	.
.	.	.	.	.	4a/	.	4ff\	.	.	.	.	.	.	.	.	.	.	.	8ff\	-mi-	.	.	.	.	.	.	.	.	.
4d\	.	.	4d\	.	.	.	.	.	.	4d\	-o	.	8d\	-mi-	.	8a\	-mi-	.	4ff\	-ne	.	4a\	.	4a\	.	4dd\	.	4ff\	.
.	.	.	.	.	8a/	.	8ff\	.	.	.	.	.	8d\	-ne	.	8a\	-ne	.	.	.	.	.	.	.	.	.	.	.	.
=25	=25	=25	=25	=25	=25	=25	=25	=25	=25	=25	=25	=25	=25	=25	=25	=25	=25	=25	=25	=25	=25	=25	=25	=25	=25	=25	=25	=25	=25
!LO:SIC:s=4c	!	!	!LO:SIC:s=4c	!	!	!	!	!	!	!	!	!	!	!	!	!	!	!	!	!	!	!LO:TX:a:t=e:mod=	!	!	!	!	!	!	!
4cn\	#4 2	.	4cn/	.	8a/ 8d/	.	8ff#X\	.	2.ryy	2.cn\	ve-	.	4d\	De-	.	4a\	De-	.	4ff#X\	De-	.	2.a\	.	2.a\	.	2.dd\	.	2.ff#X\	.
.	.	.	.	.	4a/ 4d/	.	4ff#\	.	.	.	.	.	.	.	.	.	.	.	.	.	.	.	.	.	.	.	.	.	.
4c\	.	.	4c/	.	.	.	.	.	.	.	.	.	4d\	-um	.	4a\	-um	.	4ff#\	-um	.	.	.	.	.	.	.	.	.
.	.	.	.	.	4a/ 4d/	.	4ff#\	.	.	.	.	.	.	.	.	.	.	.	.	.	.	.	.	.	.	.	.	.	.
4c\	.	.	4c/	.	.	.	.	.	.	.	.	.	4d\	de	.	4a\	de	.	4ff#\	de	.	.	.	.	.	.	.	.	.
.	.	.	.	.	8a/ 8d/	.	8ff#\	.	.	.	.	.	.	.	.	.	.	.	.	.	.	.	.	.	.	.	.	.	.
=26	=26	=26	=26	=26	=26	=26	=26	=26	=26	=26	=26	=26	=26	=26	=26	=26	=26	=26	=26	=26	=26	=26	=26	=26	=26	=26	=26	=26	=26
!	!	!	!LO:TX:t=P:problem=kasownik dopisany ołówkiem	!	!	!	!	!	!	!LO:SIC:l:v:t=-ro	!LO:MO:mod=-ro	!	!	!	!	!	!	!	!	!	!	!	!	!	!	!	!	!	!
4Bn\	6	.	4Bn/	.	8dd/ 8d/	.	8gg\L	.	2.ryy	4Bn\	-re	.	2d\	De-	.	2g\	De-	.	2gg\	De-	.	2g\	.	2g\	.	2.dd\	.	2.gg\	.
.	.	.	.	.	4dd/ 4d/	.	16bbn\L	.	.	.	.	.	.	.	.	.	.	.	.	.	.	.	.	.	.	.	.	.	.
.	.	.	.	.	.	.	16aa\JJ	.	.	.	.	.	.	.	.	.	.	.	.	.	.	.	.	.	.	.	.	.	.
4B\	_	.	4B/	.	.	.	8gg\L	.	.	4B\	de-	.	.	.	.	.	.	.	.	.	.	.	.	.	.	.	.	.	.
.	.	.	.	.	4dd/ 4d/	.	16ddd\L	.	.	.	.	.	.	.	.	.	.	.	.	.	.	.	.	.	.	.	.	.	.
!	!	!	!	!	!	!	!LO:SIC:s=16bbJJ	!	!	!	!	!	!	!	!	!	!	!	!	!	!	!	!	!	!	!	!	!	!
.	.	.	.	.	.	.	16bbn\JJ	.	.	.	.	.	.	.	.	.	.	.	.	.	.	.	.	.	.	.	.	.	.
4B\	.	.	4r	.	.	.	8gg\L	.	.	4B\	-o	.	4d\	-o	.	4g\	-o	.	4gg\	-o	.	4r	.	4r	.	.	.	.	.
.	.	.	.	.	8dd/ 8d/	.	8gg\J	.	.	.	.	.	.	.	.	.	.	.	.	.	.	.	.	.	.	.	.	.	.
!	!	!	!	!	!	!	!	!	!	!LO:LB:g=original	!	!	!	!	!	!LO:LB:g=original	!	!	!LO:LB:g=original	!	!	!	!	!	!	!	!	!LO:LB:g=original	!
=27	=27	=27	=27	=27	=27	=27	=27	=27	=27	=27	=27	=27	=27	=27	=27	=27	=27	=27	=27	=27	=27	=27	=27	=27	=27	=27	=27	=27	=27
!	!	!	!	!	!	!	!	!	!	!	!LO:MO:mod=ve-	!	!	!	!	!	!	!	!	!	!	!	!	!	!	!	!	!LO:SIC:v:s=2.ff#	!
4c\	#4 2	.	4c/	.	8a/ 8d/	.	8ff#X\	.	2.ryy	2.c\	Ve-	.	2.d\	ve-	.	2.a\	ve-	.	2.ff#X\	ve-	.	4A/	.	4a\	.	2.dd\	.	2.ff\	.
.	.	.	.	.	4a/ 4d/	.	4ff#\	.	.	.	.	.	.	.	.	.	.	.	.	.	.	.	.	.	.	.	.	.	.
4c\	.	.	4c/	.	.	.	.	.	.	.	.	.	.	.	.	.	.	.	.	.	.	4A/	.	4a\	.	.	.	.	.
.	.	.	.	.	4a/ 4d/	.	4ff#\	.	.	.	.	.	.	.	.	.	.	.	.	.	.	.	.	.	.	.	.	.	.
4c\	.	.	4c/	.	.	.	.	.	.	.	.	.	.	.	.	.	.	.	.	.	.	4a\	.	4a\	.	.	.	.	.
.	.	.	.	.	8a/ 8d/	.	8ff#\	.	.	.	.	.	.	.	.	.	.	.	.	.	.	.	.	.	.	.	.	.	.
!	!	!	!LO:LB:g=original	!	!	!	!	!	!	!	!	!	!LO:LB:g=original	!	!	!	!	!	!	!	!	!	!	!LO:LB:g=original	!	!	!	!	!
=28	=28	=28	=28	=28	=28	=28	=28	=28	=28	=28	=28	=28	=28	=28	=28	=28	=28	=28	=28	=28	=28	=28	=28	=28	=28	=28	=28	=28	=28
!	!	!	!	!	!	!	!LO:TX:t=P:problem=mixed beam	!	!	!	!	!	!	!	!	!	!	!	!	!	!	!	!	!	!	!	!	!	!
4Bn\	.	.	4Bn/	.	4dd/ 4d/	.	8gg\L	.	2.ryy	4Bn\	-ro	.	4d\	-ro	.	4g\	-ro	.	4gg\	-ro	.	2g\	.	2g\	.	4dd\	.	4gg\	.
!	!	!	!	!	!	!	!	!LO:DY:a:t=Pia	!	!	!	!	!	!	!	!	!	!	!	!	!	!	!	!	!	!	!	!	!
.	.	.	.	.	.	.	8g/	p	.	.	.	.	.	.	.	.	.	.	.	.	.	.	.	.	.	.	.	.	.
4r	.	.	4r	.	4r	.	8g/	.	.	4r	.	.	4r	.	.	4r	.	.	4r	.	.	.	.	.	.	4r	.	4r	.
.	.	.	.	.	.	.	8g/	.	.	.	.	.	.	.	.	.	.	.	.	.	.	.	.	.	.	.	.	.	.
4r	.	.	4r	.	4r	.	(8f#X/	.	.	4r	.	.	4r	.	.	4r	.	.	4r	.	.	4r	.	4r	.	4r	.	4r	.
.	.	.	.	.	.	.	8g/J)	.	.	.	.	.	.	.	.	.	.	.	.	.	.	.	.	.	.	.	.	.	.
!	!	!	!	!	!LO:LB:g=original	!	!	!	!	!	!	!	!	!	!	!	!	!	!	!	!	!LO:LB:g=original	!	!	!	!	!	!	!
=29	=29	=29	=29	=29	=29	=29	=29	=29	=29	=29	=29	=29	=29	=29	=29	=29	=29	=29	=29	=29	=29	=29	=29	=29	=29	=29	=29	=29	=29
!	!	!	!	!	!	!	!	!	!	!	!	!	!	!	!LO:MO:null:mod=!LO&colon;DY&colon;ed=brack	!	!	!	!	!	!	!	!	!	!	!	!	!	!
!	!	!	!	!	!	!	!	!	!	!	!	!	!	!	!	!	!	!	!	!	!	!	!	!	!	!	!	!	!
!	!	!LO:DY:rj:b:t=po	!	!LO:DY:rj:a:t=p.	!	!LO:DY:a:t=po.	!	!	!	!	!	!	!	!	!LO:MO:null:mod=p	!	!	!	!	!	!	!	!	!	!	!	!	!	!
2.F\	n4 2	p	2.d\	p	8g/	p	(8bn/L	.	2.ryy	0.r	.	.	2Bn\	ge-	.	0.r	.	.	0.r	.	.	0.r	.	0.r	.	0.r	.	0.r	.
.	.	.	.	.	4g/	.	8g/J)	.	.	.	.	.	.	.	.	.	.	.	.	.	.	.	.	.	.	.	.	.	.
.	.	.	.	.	.	.	8r	.	.	.	.	.	.	.	.	.	.	.	.	.	.	.	.	.	.	.	.	.	.
.	.	.	.	.	4g/	.	8b'\L	.	.	.	.	.	.	.	.	.	.	.	.	.	.	.	.	.	.	.	.	.	.
.	.	.	.	.	.	.	8b'\	.	.	.	.	.	4B\	-ni-	.	.	.	.	.	.	.	.	.	.	.	.	.	.	.
.	.	.	.	.	[8g/	.	8b'\J	.	.	.	.	.	.	.	.	.	.	.	.	.	.	.	.	.	.	.	.	.	.
=30	=30	=30	=30	=30	=30	=30	=30	=30	=30	=30	=30	=30	=30	=30	=30	=30	=30	=30	=30	=30	=30	=30	=30	=30	=30	=30	=30	=30	=30
2.E\	6	.	2.e\	.	8g/]	.	(8cc/L	.	2.ryy	.	.	.	2c\	-tum	.	.	.	.	.	.	.	.	.	.	.	.	.	.	.
.	.	.	.	.	4g/	.	8g/J)	.	.	.	.	.	.	.	.	.	.	.	.	.	.	.	.	.	.	.	.	.	.
.	.	.	.	.	.	.	8r	.	.	.	.	.	.	.	.	.	.	.	.	.	.	.	.	.	.	.	.	.	.
.	.	.	.	.	4g/	.	8cc'\L	.	.	.	.	.	.	.	.	.	.	.	.	.	.	.	.	.	.	.	.	.	.
!	!	!	!	!	!	!	!	!	!	!	!	!	!	!LO:MO:mod=non	!	!	!	!	!	!	!	!	!	!	!	!	!	!	!
.	.	.	.	.	.	.	8cc'\	.	.	.	.	.	4c\	n(on)	.	.	.	.	.	.	.	.	.	.	.	.	.	.	.
.	.	.	.	.	[8g/	.	8cc'\J	.	.	.	.	.	.	.	.	.	.	.	.	.	.	.	.	.	.	.	.	.	.
!	!	!	!	!	!	!	!LO:LB:g=original	!	!	!	!	!	!	!	!	!	!	!	!	!	!	!	!	!	!	!	!	!	!
=31	=31	=31	=31	=31	=31	=31	=31	=31	=31	=31	=31	=31	=31	=31	=31	=31	=31	=31	=31	=31	=31	=31	=31	=31	=31	=31	=31	=31	=31
2.BBn/	6	.	2.Bn/	.	8g/]	.	(8cc#X\L	.	2.ryy	.	.	.	2.d\	fa-	.	.	.	.	.	.	.	.	.	.	.	.	.	.	.
.	.	.	.	.	4g/	.	8dd\J)	.	.	.	.	.	.	.	.	.	.	.	.	.	.	.	.	.	.	.	.	.	.
.	.	.	.	.	.	.	8r	.	.	.	.	.	.	.	.	.	.	.	.	.	.	.	.	.	.	.	.	.	.
.	.	.	.	.	4g/	.	8dd'\L	.	.	.	.	.	.	.	.	.	.	.	.	.	.	.	.	.	.	.	.	.	.
.	.	.	.	.	.	.	8dd'\	.	.	.	.	.	.	.	.	.	.	.	.	.	.	.	.	.	.	.	.	.	.
.	.	.	.	.	[8g/	.	8dd'\J	.	.	.	.	.	.	.	.	.	.	.	.	.	.	.	.	.	.	.	.	.	.
=32	=32	=32	=32	=32	=32	=32	=32	=32	=32	=32	=32	=32	=32	=32	=32	=32	=32	=32	=32	=32	=32	=32	=32	=32	=32	=32	=32	=32	=32
2.C/	.	.	2.c\	.	8g/]	.	(8dd#X\L	.	2.ryy	.	.	.	4e\	-ctum	.	.	.	.	.	.	.	.	.	.	.	.	.	.	.
.	.	.	.	.	4g/	.	8ee\J)	.	.	.	.	.	.	.	.	.	.	.	.	.	.	.	.	.	.	.	.	.	.
.	.	.	.	.	.	.	8r	.	.	.	.	.	4r	.	.	.	.	.	.	.	.	.	.	.	.	.	.	.	.
.	.	.	.	.	4g/	.	8ee'\L	.	.	.	.	.	.	.	.	.	.	.	.	.	.	.	.	.	.	.	.	.	.
.	.	.	.	.	.	.	8ee'\	.	.	.	.	.	4r	.	.	.	.	.	.	.	.	.	.	.	.	.	.	.	.
.	.	.	.	.	[8g/	.	8gg'\J	.	.	.	.	.	.	.	.	.	.	.	.	.	.	.	.	.	.	.	.	.	.
=33	=33	=33	=33	=33	=33	=33	=33	=33	=33	=33	=33	=33	=33	=33	=33	=33	=33	=33	=33	=33	=33	=33	=33	=33	=33	=33	=33	=33	=33
!	!	!	!	!	!	!	!LO:TX:t=P:problem=mixed beam	!	!	!	!	!	!	!	!	!	!	!	!	!	!	!	!	!	!	!	!	!	!
!	!	!	!	!	!	!	!LO:SIC:s=(8ggL	!	!	!	!	!	!	!	!	!	!	!	!	!	!	!	!	!	!	!	!	!	!
2.D\	6	.	2.f\	.	8g/]	.	8gg\L	.	2.ryy	0.r	.	.	2Bn\	Con-	.	0.r	.	.	1.r	.	.	0.r	.	0.r	.	0.r	.	0.r	.
!	!	!	!	!	!	!	!LO:SIC:s=8bJ)	!	!	!	!	!	!	!	!	!	!	!	!	!	!	!	!	!	!	!	!	!	!
.	.	.	.	.	4g/	.	8bn/J	.	.	.	.	.	.	.	.	.	.	.	.	.	.	.	.	.	.	.	.	.	.
.	.	.	.	.	.	.	8r	.	.	.	.	.	.	.	.	.	.	.	.	.	.	.	.	.	.	.	.	.	.
.	.	.	.	.	4g/	.	8b'\L	.	.	.	.	.	.	.	.	.	.	.	.	.	.	.	.	.	.	.	.	.	.
.	.	.	.	.	.	.	8b'\	.	.	.	.	.	4B\	-sub-	.	.	.	.	.	.	.	.	.	.	.	.	.	.	.
.	.	.	.	.	[8g/	.	8b'\J	.	.	.	.	.	.	.	.	.	.	.	.	.	.	.	.	.	.	.	.	.	.
=34	=34	=34	=34	=34	=34	=34	=34	=34	=34	=34	=34	=34	=34	=34	=34	=34	=34	=34	=34	=34	=34	=34	=34	=34	=34	=34	=34	=34	=34
2.E\	6	.	2.g\	.	8g/]	.	(8cc/L	.	2.ryy	.	.	.	2c\	-ſtan-	.	.	.	.	.	.	.	.	.	.	.	.	.	.	.
.	.	.	.	.	4g/	.	8g/J)	.	.	.	.	.	.	.	.	.	.	.	.	.	.	.	.	.	.	.	.	.	.
.	.	.	.	.	.	.	8r	.	.	.	.	.	.	.	.	.	.	.	.	.	.	.	.	.	.	.	.	.	.
.	.	.	.	.	4g/	.	8cc'\L	.	.	.	.	.	.	.	.	.	.	.	.	.	.	.	.	.	.	.	.	.	.
.	.	.	.	.	.	.	8cc'\	.	.	.	.	.	4c\	-ti-	.	.	.	.	.	.	.	.	.	.	.	.	.	.	.
.	.	.	.	.	[8g/	.	8cc'\J	.	.	.	.	.	.	.	.	.	.	.	.	.	.	.	.	.	.	.	.	.	.
=35	=35	=35	=35	=35	=35	=35	=35	=35	=35	=35	=35	=35	=35	=35	=35	=35	=35	=35	=35	=35	=35	=35	=35	=35	=35	=35	=35	=35	=35
2.BBn/	6	.	2.Bn/	.	8g/]	.	(8cc#X\L	.	2.ryy	.	.	.	2.d\	-a-	.	.	.	.	2.r	.	.	.	.	.	.	.	.	.	.
.	.	.	.	.	4g/	.	8dd\J)	.	.	.	.	.	.	.	.	.	.	.	.	.	.	.	.	.	.	.	.	.	.
.	.	.	.	.	.	.	8r	.	.	.	.	.	.	.	.	.	.	.	.	.	.	.	.	.	.	.	.	.	.
.	.	.	.	.	4g/	.	8dd'\L	.	.	.	.	.	.	.	.	.	.	.	.	.	.	.	.	.	.	.	.	.	.
.	.	.	.	.	.	.	8dd'\	.	.	.	.	.	.	.	.	.	.	.	.	.	.	.	.	.	.	.	.	.	.
.	.	.	.	.	[8g/	.	8dd'\J	.	.	.	.	.	.	.	.	.	.	.	.	.	.	.	.	.	.	.	.	.	.
!LO:LB:g=original	!	!	!	!	!	!	!	!	!	!	!	!	!	!	!	!	!	!	!	!	!	!	!	!	!	!	!	!	!
=36	=36	=36	=36	=36	=36	=36	=36	=36	=36	=36	=36	=36	=36	=36	=36	=36	=36	=36	=36	=36	=36	=36	=36	=36	=36	=36	=36	=36	=36
2.C/	.	.	2.c/	.	8g/]	.	(8dd#X\L	.	2.ryy	.	.	.	4e\	-lem	.	.	.	.	4r	.	.	.	.	.	.	.	.	.	.
.	.	.	.	.	4g/	.	8ee\J)	.	.	.	.	.	.	.	.	.	.	.	.	.	.	.	.	.	.	.	.	.	.
!	!	!	!	!	!	!	!	!	!	!	!	!	!	!	!	!	!	!	!	!	!LO:DY:b:t=p.	!	!	!	!	!	!	!	!
.	.	.	.	.	.	.	8r	.	.	.	.	.	4r	.	.	.	.	.	4ee\	Con-	p	.	.	.	.	.	.	.	.
!	!	!	!	!	!	!	!LO:SIC:s=8ee'L	!	!	!	!	!	!	!	!	!	!	!	!	!	!	!	!	!	!	!	!	!	!
.	.	.	.	.	4g/	.	8ee\L	.	.	.	.	.	.	.	.	.	.	.	.	.	.	.	.	.	.	.	.	.	.
!	!	!	!	!	!	!	!LO:SIC:s=8ee'	!	!	!	!	!	!	!	!	!	!	!	!	!	!	!	!	!	!	!	!	!	!
.	.	.	.	.	.	.	8ee\	.	.	.	.	.	4r	.	.	.	.	.	4ee\	-sub-	.	.	.	.	.	.	.	.	.
!	!	!	!	!	!	!	!LO:SIC:s=8ee'J	!	!	!	!	!	!	!	!	!	!	!	!	!	!	!	!	!	!	!	!	!	!
.	.	.	.	.	8g/	.	8ee\J	.	.	.	.	.	.	.	.	.	.	.	.	.	.	.	.	.	.	.	.	.	.
=37	=37	=37	=37	=37	=37	=37	=37	=37	=37	=37	=37	=37	=37	=37	=37	=37	=37	=37	=37	=37	=37	=37	=37	=37	=37	=37	=37	=37	=37
!	!	!	!	!	!	!	!LO:SIC:s=(8ffL	!	!	!	!	!	!	!	!	!	!	!	!	!	!	!	!	!	!	!	!	!	!
2.A\	6	.	2.A/	.	8cc\	.	8ff\L	.	2.ryy	1.r	.	.	1.r	.	.	1.r	.	.	2ff\	-stan-	.	1.r	.	1.r	.	0.r	.	0.r	.
!	!	!	!	!	!	!	!LO:SIC:s=8ccJ)	!	!	!	!	!	!	!	!	!	!	!	!	!	!	!	!	!	!	!	!	!	!
.	.	.	.	.	4cc\	.	8cc\J	.	.	.	.	.	.	.	.	.	.	.	.	.	.	.	.	.	.	.	.	.	.
.	.	.	.	.	.	.	8r	.	.	.	.	.	.	.	.	.	.	.	.	.	.	.	.	.	.	.	.	.	.
.	.	.	.	.	4cc\	.	8ff'\L	.	.	.	.	.	.	.	.	.	.	.	.	.	.	.	.	.	.	.	.	.	.
.	.	.	.	.	.	.	8ff'\	.	.	.	.	.	.	.	.	.	.	.	4ff\	-ti-	.	.	.	.	.	.	.	.	.
.	.	.	.	.	[8cc\	.	8ff'\J	.	.	.	.	.	.	.	.	.	.	.	.	.	.	.	.	.	.	.	.	.	.
!	!	!	!	!	!LO:LB:g=original	!	!	!	!	!	!	!	!	!	!	!	!	!	!	!	!	!	!	!	!	!	!	!	!
=38	=38	=38	=38	=38	=38	=38	=38	=38	=38	=38	=38	=38	=38	=38	=38	=38	=38	=38	=38	=38	=38	=38	=38	=38	=38	=38	=38	=38	=38
!	!	!	!	!	!LO:TX:t=P:problem=brak zakończenia ligatury	!	!	!	!	!	!	!	!	!	!	!	!	!	!	!	!	!	!	!	!	!	!	!	!
2.E\	6	.	2.e\	.	8cc\]	.	(8ff#X\L	.	2.ryy	.	.	.	.	.	.	.	.	.	2.gg\	-a-	.	.	.	.	.	.	.	.	.
.	.	.	.	.	4cc\	.	8gg\J)	.	.	.	.	.	.	.	.	.	.	.	.	.	.	.	.	.	.	.	.	.	.
.	.	.	.	.	.	.	8r	.	.	.	.	.	.	.	.	.	.	.	.	.	.	.	.	.	.	.	.	.	.
!	!	!	!	!	!	!	!LO:SIC:s=8gg'L	!	!	!	!	!	!	!	!	!	!	!	!	!	!	!	!	!	!	!	!	!	!
.	.	.	.	.	4cc\	.	8gg\L	.	.	.	.	.	.	.	.	.	.	.	.	.	.	.	.	.	.	.	.	.	.
.	.	.	.	.	.	.	8gg'\	.	.	.	.	.	.	.	.	.	.	.	.	.	.	.	.	.	.	.	.	.	.
!	!	!	!	!	!	!	!LO:SIC:s=8gg'J	!	!	!	!	!	!	!	!	!	!	!	!	!	!	!	!	!	!	!	!	!	!
.	.	.	.	.	[8cc\	.	8gg\J	.	.	.	.	.	.	.	.	.	.	.	.	.	.	.	.	.	.	.	.	.	.
!	!	!	!	!	!	!	!LO:LB:g=original	!	!	!	!	!	!	!	!	!	!	!	!	!	!	!	!	!	!	!	!	!	!
=39	=39	=39	=39	=39	=39	=39	=39	=39	=39	=39	=39	=39	=39	=39	=39	=39	=39	=39	=39	=39	=39	=39	=39	=39	=39	=39	=39	=39	=39
2.F\	.	.	2.f\	.	8cc\]	.	(8gg#X\L	.	2.ryy	2.r	.	.	2.r	.	.	2.r	.	.	4ff\	-lem	.	2.r	.	2.r	.	.	.	.	.
.	.	.	.	.	4cc\	.	8aa\J)	.	.	.	.	.	.	.	.	.	.	.	.	.	.	.	.	.	.	.	.	.	.
.	.	.	.	.	.	.	8r	.	.	.	.	.	.	.	.	.	.	.	4r	.	.	.	.	.	.	.	.	.	.
.	.	.	.	.	4cc\	.	8aa'\L	.	.	.	.	.	.	.	.	.	.	.	.	.	.	.	.	.	.	.	.	.	.
.	.	.	.	.	.	.	8aa'\	.	.	.	.	.	.	.	.	.	.	.	4r	.	.	.	.	.	.	.	.	.	.
!	!	!	!	!	!	!	!LO:SIC:s=8aa'J	!	!	!	!	!	!	!	!	!	!	!	!	!	!	!	!	!	!	!	!	!	!
.	.	.	.	.	8cc\	.	8aa\J	.	.	.	.	.	.	.	.	.	.	.	.	.	.	.	.	.	.	.	.	.	.
!	!	!	!	!	!	!	!	!	!	!	!	!	!LO:LB:g=original	!	!	!	!	!	!	!	!	!	!	!	!	!	!	!	!
=40	=40	=40	=40	=40	=40	=40	=40	=40	=40	=40	=40	=40	=40	=40	=40	=40	=40	=40	=40	=40	=40	=40	=40	=40	=40	=40	=40	=40	=40
!	!	!	!	!	!	!	!LO:TX:t=P:problem=mixed beam	!	!	!	!	!LO:DY:a:t=po	!	!	!LO:DY:a:t=po	!	!	!LO:DY:b:t=po	!	!	!	!	!LO:DY:rj:a:t=p.	!	!LO:DY:rj:a:t=p.	!	!	!	!
!	!	!	!	!	!	!	!LO:SIC:s=(8ggL	!	!	!	!	!LO:MO:null:mod=.	!	!	!	!	!	!	!	!	!	!	!	!	!	!	!	!	!
2.C#X/	6 5	.	2.e\	.	8a/	.	8gg\L	.	2.ryy	2.C#X/	Pa-	p	2.e\	Pa-	p	2.a\	Pa-	p	2.gg\	Pa-	.	[>2.A/	p	2.a\	p	.	.	.	.
!	!	!	!	!	!	!	!LO:SIC:s=8gJ)	!	!	!	!	!	!	!	!	!	!	!	!	!	!	!	!	!	!	!	!	!	!
.	.	.	.	.	4a/	.	8g/J	.	.	.	.	.	.	.	.	.	.	.	.	.	.	.	.	.	.	.	.	.	.
.	.	.	.	.	.	.	8r	.	.	.	.	.	.	.	.	.	.	.	.	.	.	.	.	.	.	.	.	.	.
.	.	.	.	.	4a/	.	8gg'\L	.	.	.	.	.	.	.	.	.	.	.	.	.	.	.	.	.	.	.	.	.	.
.	.	.	.	.	.	.	8gg'\	.	.	.	.	.	.	.	.	.	.	.	.	.	.	.	.	.	.	.	.	.	.
!	!	!	!	!	!	!	!LO:SIC:s=8gg'J	!	!	!	!	!	!	!	!	!	!	!	!	!	!	!	!	!	!	!	!	!	!
.	.	.	.	.	[8a/	.	8gg\J	.	.	.	.	.	.	.	.	.	.	.	.	.	.	.	.	.	.	.	.	.	.
=41	=41	=41	=41	=41	=41	=41	=41	=41	=41	=41	=41	=41	=41	=41	=41	=41	=41	=41	=41	=41	=41	=41	=41	=41	=41	=41	=41	=41	=41
2.D\	n	.	2.f\	.	8a/]	.	(8ff\L	.	2.ryy	2.D\	-tri	.	2.d\	-tri	.	2.a\	-tri	.	2.ff\	-tri	.	2.A/_>	.	2.a\	.	0.r	.	0.r	.
.	.	.	.	.	4a/	.	8aa\J)	.	.	.	.	.	.	.	.	.	.	.	.	.	.	.	.	.	.	.	.	.	.
.	.	.	.	.	.	.	8r	.	.	.	.	.	.	.	.	.	.	.	.	.	.	.	.	.	.	.	.	.	.
!	!	!	!	!	!	!	!LO:SIC:s=8dd'L	!	!	!	!	!	!	!	!	!	!	!	!	!	!	!	!	!	!	!	!	!	!
.	.	.	.	.	4a/	.	8dd\L	.	.	.	.	.	.	.	.	.	.	.	.	.	.	.	.	.	.	.	.	.	.
!	!	!	!	!	!	!	!LO:SIC:s=8dd'	!	!	!	!	!	!	!	!	!	!	!	!	!	!	!	!	!	!	!	!	!	!
.	.	.	.	.	.	.	8dd\	.	.	.	.	.	.	.	.	.	.	.	.	.	.	.	.	.	.	.	.	.	.
!	!	!	!	!	!	!	!LO:SIC:s=8dd'J	!	!	!	!	!	!	!	!	!	!	!	!	!	!	!	!	!	!	!	!	!	!
.	.	.	.	.	[8a/	.	8dd\J	.	.	.	.	.	.	.	.	.	.	.	.	.	.	.	.	.	.	.	.	.	.
=42	=42	=42	=42	=42	=42	=42	=42	=42	=42	=42	=42	=42	=42	=42	=42	=42	=42	=42	=42	=42	=42	=42	=42	=42	=42	=42	=42	=42	=42
!	!	!	!	!	!	!	!LO:SIC:s=(8cc#L	!	!	!	!	!	!	!	!	!	!LO:MO:mod=per	!	!	!	!	!	!	!	!	!	!	!	!
2.E\	6\	.	2.e\	.	8a/]	.	8cc#X/L	.	2.ryy	2.E\	per	.	2.A\	per	.	2.g\	p(er)	.	2cc#X\	per	.	2.A/]	.	2.a\	.	.	.	.	.
!	!	!	!	!	!	!	!LO:SIC:s=8gJ)	!	!	!	!	!	!	!	!	!	!	!	!	!	!	!	!	!	!	!	!	!	!
.	.	.	.	.	4a/	.	8g/J	.	.	.	.	.	.	.	.	.	.	.	.	.	.	.	.	.	.	.	.	.	.
.	.	.	.	.	.	.	8r	.	.	.	.	.	.	.	.	.	.	.	.	.	.	.	.	.	.	.	.	.	.
.	.	.	.	.	4a/	.	8cc#'\L	.	.	.	.	.	.	.	.	.	.	.	.	.	.	.	.	.	.	.	.	.	.
.	.	.	.	.	.	.	8cc#'\	.	.	.	.	.	.	.	.	.	.	.	4cc#\	quem	.	.	.	.	.	.	.	.	.
.	.	.	.	.	[8a/	.	8cc#'\J	.	.	.	.	.	.	.	.	.	.	.	.	.	.	.	.	.	.	.	.	.	.
!	!	!	!LO:LB:g=original	!	!	!	!	!	!	!	!	!	!	!	!	!	!	!	!LO:LB:g=original	!	!	!	!	!	!	!	!	!	!
=43	=43	=43	=43	=43	=43	=43	=43	=43	=43	=43	=43	=43	=43	=43	=43	=43	=43	=43	=43	=43	=43	=43	=43	=43	=43	=43	=43	=43	=43
!	!	!	!	!	!	!	!LO:TX:t=P:problem=mixed beam	!	!	!	!	!	!	!	!	!	!	!	!	!	!	!	!	!	!	!	!	!	!
!	!	!	!	!	!	!	!LO:SIC:s=(8ddL	!	!	!	!	!	!	!	!	!	!	!	!	!	!	!	!	!	!	!	!	!	!
2.F\	6\	.	2.f\	.	8a/]	.	8dd\L	.	2.ryy	2.F\	quem	.	2.A\	quem	.	2.a\	quem	.	2.dd\	o-	.	2.A/	.	2.a\	.	.	.	.	.
!	!	!	!	!	!	!	!LO:SIC:s=8aJ)	!	!	!	!	!	!	!	!	!	!	!	!	!	!	!	!	!	!	!	!	!	!
.	.	.	.	.	4a/	.	8a/J	.	.	.	.	.	.	.	.	.	.	.	.	.	.	.	.	.	.	.	.	.	.
.	.	.	.	.	.	.	8r	.	.	.	.	.	.	.	.	.	.	.	.	.	.	.	.	.	.	.	.	.	.
!	!	!	!	!	!	!	!LO:SIC:s=8dd'L	!	!	!	!	!	!	!	!	!	!	!	!	!	!	!	!	!	!	!	!	!	!
.	.	.	.	.	4a/	.	8dd\L	.	.	.	.	.	.	.	.	.	.	.	.	.	.	.	.	.	.	.	.	.	.
!	!	!	!	!	!	!	!LO:SIC:s=8dd'	!	!	!	!	!	!	!	!	!	!	!	!	!	!	!	!	!	!	!	!	!	!
.	.	.	.	.	.	.	8dd\	.	.	.	.	.	.	.	.	.	.	.	.	.	.	.	.	.	.	.	.	.	.
!	!	!	!	!	!	!	!LO:SIC:s=8dd'J	!	!	!	!	!	!	!	!	!	!	!	!	!	!	!	!	!	!	!	!	!	!
.	.	.	.	.	[8a/	.	8dd\J	.	.	.	.	.	.	.	.	.	.	.	.	.	.	.	.	.	.	.	.	.	.
=44	=44	=44	=44	=44	=44	=44	=44	=44	=44	=44	=44	=44	=44	=44	=44	=44	=44	=44	=44	=44	=44	=44	=44	=44	=44	=44	=44	=44	=44
!	!	!	!	!	!	!	!LO:TX:t=P:problem=mixed beam	!	!	!	!	!	!	!	!	!	!	!	!	!	!	!	!	!	!	!	!	!	!
!	!	!	!	!	!	!	!LO:SIC:s=(8eeL	!	!	!	!	!	!	!	!	!	!	!	!	!	!	!	!	!	!	!	!	!	!
2.C#X/	6	.	2.c#X\	.	8a/]	.	8ee\L	.	2.ryy	2C#X/	o-	.	2A\	o-	.	2a\	o-	.	2ee\	.	.	2.A/	.	2.a\	.	.	.	.	.
!	!	!	!	!	!	!	!LO:SIC:s=8aJ)	!	!	!	!	!	!	!	!	!	!	!	!	!	!	!	!	!	!	!	!	!	!
.	.	.	.	.	4a/	.	8a/J	.	.	.	.	.	.	.	.	.	.	.	.	.	.	.	.	.	.	.	.	.	.
.	.	.	.	.	.	.	8r	.	.	.	.	.	.	.	.	.	.	.	.	.	.	.	.	.	.	.	.	.	.
!	!	!	!	!	!	!	!LO:SIC:s=8ee'L	!	!	!	!	!	!	!	!	!	!	!	!	!	!	!	!	!	!	!	!	!	!
.	.	.	.	.	4a/	.	8ee\L	.	.	.	.	.	.	.	.	.	.	.	.	.	.	.	.	.	.	.	.	.	.
!	!	!	!	!	!	!	!LO:SIC:s=8ee'	!	!	!	!	!	!	!	!	!	!	!	!	!	!	!	!	!	!	!	!	!	!
.	.	.	.	.	.	.	8ee\	.	.	4C#/	-mni-	.	4A\	-mni-	.	4a\	-mni-	.	4ee\	-mni-	.	.	.	.	.	.	.	.	.
!	!	!	!	!	!	!	!LO:SIC:s=8ee'J	!	!	!	!	!	!	!	!	!	!	!	!	!	!	!	!	!	!	!	!	!	!
.	.	.	.	.	8a/	.	8ee\J	.	.	.	.	.	.	.	.	.	.	.	.	.	.	.	.	.	.	.	.	.	.
=45	=45	=45	=45	=45	=45	=45	=45	=45	=45	=45	=45	=45	=45	=45	=45	=45	=45	=45	=45	=45	=45	=45	=45	=45	=45	=45	=45	=45	=45
4D/	.	.	4d\	.	4a/	.	8ff\L	.	2.ryy	4D/	-a	.	4A\	-a	.	4a\	-a	.	4ff\	-a	.	4A/	.	4a\	.	0.r	.	0.r	.
.	.	.	.	.	.	.	8ee\J	.	.	.	.	.	.	.	.	.	.	.	.	.	.	.	.	.	.	.	.	.	.
8r	.	.	8r	.	8r	.	4.dd\	.	.	4r	.	.	4r	.	.	4r	.	.	4r	.	.	4r	.	4r	.	.	.	.	.
8D\L	.	.	8d\L	.	8f#X/L	.	.	.	.	.	.	.	.	.	.	.	.	.	.	.	.	.	.	.	.	.	.	.	.
8E\	.	.	8e\	.	8g/	.	.	.	.	4r	.	.	4r	.	.	4r	.	.	4r	.	.	4r	.	4r	.	.	.	.	.
!	!	!	!LO:SIC:v:s=8f#J	!	!	!	!	!	!	!	!	!	!	!	!	!	!	!	!	!	!	!	!	!	!	!	!	!	!
8F#X\J	5	.	8f\J	.	8a/J	.	8cc\	.	.	.	.	.	.	.	.	.	.	.	.	.	.	.	.	.	.	.	.	.	.
!	!	!	!	!	!LO:LB:g=original	!	!	!	!	!	!	!	!	!	!	!	!	!	!	!	!	!	!	!	!	!	!	!	!
=46	=46	=46	=46	=46	=46	=46	=46	=46	=46	=46	=46	=46	=46	=46	=46	=46	=46	=46	=46	=46	=46	=46	=46	=46	=46	=46	=46	=46	=46
*	*	*	*	*	*	*	*	*	*	*	*	*	*	*ij	*	*	*ij	*	*	*ij	*	*	*	*	*	*	*	*	*
!	!	!	!	!	!	!	!	!	!	!	!	!	!	!	!	!	!LO:MO:mod=per	!	!	!	!	!	!	!	!	!	!	!	!
4.G\	3	.	4.g\	.	8d/	.	8b-X/	.	2.ryy	4r	.	.	2B-\	per	.	2g\	p(er)	.	2b-\	per	.	1.r	.	1.r	.	.	.	.	.
.	.	.	.	.	4g/	.	4b-/	.	.	.	.	.	.	.	.	.	.	.	.	.	.	.	.	.	.	.	.	.	.
.	.	.	.	.	.	.	.	.	.	8G\L	per	.	.	.	.	.	.	.	.	.	.	.	.	.	.	.	.	.	.
8Fn\L	_	.	8f\L	.	4g/	.	4b-/	.	.	8F\J	.	.	.	.	.	.	.	.	.	.	.	.	.	.	.	.	.	.	.
8E\	.	.	8e\	.	.	.	.	.	.	8E\L	quem	.	4B-\	quem	.	4g\	quem	.	4b-\	quem	.	.	.	.	.	.	.	.	.
8D\J	.	.	8d\J	.	8g/	.	8b-/	.	.	8D\J	.	.	.	.	.	.	.	.	.	.	.	.	.	.	.	.	.	.	.
!	!	!	!	!	!	!	!LO:LB:g=original	!	!	!	!	!	!	!	!	!	!	!	!	!	!	!	!	!	!	!	!	!	!
=47	=47	=47	=47	=47	=47	=47	=47	=47	=47	=47	=47	=47	=47	=47	=47	=47	=47	=47	=47	=47	=47	=47	=47	=47	=47	=47	=47	=47	=47
*	*	*	*tremolo	*	*	*	*	*	*	*	*	*	*	*	*	*	*	*	*	*	*	*	*	*	*	*	*	*	*
!	!	!	!	!	!	!	!LO:SIC:o:s:t:v=uszkodzony papier	!	!	!	!	!	!	!	!	!	!	!	!	!	!	!	!	!	!	!	!	!	!
8C#X/L	7	.	8c#X\L	.	4g/	.	8ryy	.	2.ryy	2C#X/	o-	.	(4B-\	o-	.	(4g\	o-	.	4b-\	o-	.	.	.	.	.	.	.	.	.
8C#/	.	.	8c#X\	.	.	.	4b-/	.	.	.	.	.	.	.	.	.	.	.	.	.	.	.	.	.	.	.	.	.	.
8C#/	6	.	8c#X\	.	4f/	.	.	.	.	.	.	.	4A\)	.	.	4f\)	.	.	4a\	.	.	.	.	.	.	.	.	.	.
8C#/	.	.	8c#X\	.	.	.	8a/	.	.	.	.	.	.	.	.	.	.	.	.	.	.	.	.	.	.	.	.	.	.
8C#/	5	.	8c#X\	.	4e/	.	4g/	.	.	4C#/	-mni-	.	4A\	-mni-	.	4e\	-mni-	.	4g\	-mni-	.	.	.	.	.	.	.	.	.
8C#/J	.	.	8c#X\J	.	.	.	.	.	.	.	.	.	.	.	.	.	.	.	.	.	.	.	.	.	.	.	.	.	.
*	*	*	*Xtremolo	*	*	*	*	*	*	*	*	*	*	*	*	*	*	*	*	*	*	*	*	*	*	*	*	*	*
!LO:LB:g=original	!	!	!	!	!	!	!	!	!	!LO:LB:g=original	!	!	!	!	!	!	!	!	!	!	!	!	!	!	!	!	!	!	!
=48	=48	=48	=48	=48	=48	=48	=48	=48	=48	=48	=48	=48	=48	=48	=48	=48	=48	=48	=48	=48	=48	=48	=48	=48	=48	=48	=48	=48	=48
!	!	!	!	!	!	!	!LO:TX:t=P:problem=mixed beam	!	!	!	!	!	!	!	!	!	!	!	!	!	!	!	!	!	!	!	!	!	!
4D\	.	.	4d\	.	4f/	.	8f/L	.	2.ryy	4D/	-a	.	4A\	-a	.	4d\	-a	.	4f/	-a	.	2.r	.	2.r	.	.	.	.	.
*	*	*	*	*	*	*	*	*	*	*	*	*	*	*Xij	*	*	*Xij	*	*	*Xij	*	*	*	*	*	*	*	*	*
.	.	.	.	.	.	.	8aa\	.	.	.	.	.	.	.	.	.	.	.	.	.	.	.	.	.	.	.	.	.	.
4r	.	.	4r	.	4r	.	8gg\	.	.	4r	.	.	4r	.	.	4r	.	.	4r	.	.	.	.	.	.	.	.	.	.
.	.	.	.	.	.	.	8ff\	.	.	.	.	.	.	.	.	.	.	.	.	.	.	.	.	.	.	.	.	.	.
4F\	6	.	4f\	.	4a/	.	8ee\	.	.	4r	.	.	4r	.	.	4r	.	.	4r	.	.	.	.	.	.	.	.	.	.
.	.	.	.	.	.	.	8dd\J	.	.	.	.	.	.	.	.	.	.	.	.	.	.	.	.	.	.	.	.	.	.
=49	=49	=49	=49	=49	=49	=49	=49	=49	=49	=49	=49	=49	=49	=49	=49	=49	=49	=49	=49	=49	=49	=49	=49	=49	=49	=49	=49	=49	=49
!	!	!	!LO:TX:t=P:problem=mixed beam	!	!	!	!	!	!	!	!	!	!	!	!	!	!	!	!	!	!	!	!	!	!	!	!	!	!
.	.	.	.	.	.	.	8qqddd/	.	.	.	.	.	.	.	.	.	.	.	.	.	.	.	.	.	.	.	.	.	.
4G\	3	.	8g\L	.	8dd\L	.	8bb-\L	.	2.ryy	(4G\	fa-	.	(4B-\	fa-	.	(4g\	fa-	.	2dd\	fa-	.	4r	.	4r	.	0.r	.	0.r	.
.	.	.	8g\	.	8dd\	.	16aa\L	.	.	.	.	.	.	.	.	.	.	.	.	.	.	.	.	.	.	.	.	.	.
.	.	.	.	.	.	.	16gg\JJ	.	.	.	.	.	.	.	.	.	.	.	.	.	.	.	.	.	.	.	.	.	.
4A\	4	.	8a\	.	8dd\	.	4ff\	.	.	4A\)	.	.	4A\)	.	.	4f\)	.	.	.	.	.	4A/	.	4a\	.	.	.	.	.
.	.	.	8a\	.	8dd\	.	.	.	.	.	.	.	.	.	.	.	.	.	.	.	.	.	.	.	.	.	.	.	.
4AA/	#	.	8A/	.	8cc#X\	.	4eet\	.	.	4AA/	-cta	.	4A\	-cta	.	4e\	-cta	.	4cc#X\	-cta	.	4A/	.	4a\	.	.	.	.	.
.	.	.	8A/J	.	8cc#\J	.	.	.	.	.	.	.	.	.	.	.	.	.	.	.	.	.	.	.	.	.	.	.	.
!	!	!	!	!	!	!	!	!	!	!	!	!	!LO:LB:g=original	!	!	!	!	!	!	!	!	!	!	!	!	!	!	!	!
=50	=50	=50	=50	=50	=50	=50	=50	=50	=50	=50	=50	=50	=50	=50	=50	=50	=50	=50	=50	=50	=50	=50	=50	=50	=50	=50	=50	=50	=50
4D/	.	.	4A/	.	4dd\	.	4dd\	.	2.ryy	4D/	ſunt	.	4A\	ſunt	.	4f\	sunt	.	4dd\	ſunt	.	4A/	.	2a\	.	.	.	.	.
4DD/	.	.	4d\	.	4f/	.	8r	.	.	4r	.	.	4r	.	.	4r	.	.	4r	.	.	4r	.	.	.	.	.	.	.
.	.	.	.	.	.	.	8ff\L	.	.	.	.	.	.	.	.	.	.	.	.	.	.	.	.	.	.	.	.	.	.
4r	.	.	4r	.	4r	.	8ee\	.	.	4r	.	.	4r	.	.	4r	.	.	4r	.	.	4r	.	4r	.	.	.	.	.
.	.	.	.	.	.	.	8dd\J	.	.	.	.	.	.	.	.	.	.	.	.	.	.	.	.	.	.	.	.	.	.
!	!	!	!	!	!	!	!	!	!	!	!	!	!	!	!	!LO:LB:g=original	!	!	!	!	!	!	!	!	!	!	!	!	!
=51	=51	=51	=51	=51	=51	=51	=51	=51	=51	=51	=51	=51	=51	=51	=51	=51	=51	=51	=51	=51	=51	=51	=51	=51	=51	=51	=51	=51	=51
2.E\	7	.	2.e\	.	2.g/	.	(8dd\L	.	2.ryy	0.r	.	.	0.r	.	.	0.r	.	.	0.r	.	.	0.r	.	0.r	.	.	.	.	.
.	.	.	.	.	.	.	8cc\)	.	.	.	.	.	.	.	.	.	.	.	.	.	.	.	.	.	.	.	.	.	.
.	6	.	.	.	.	.	8cc\|	.	.	.	.	.	.	.	.	.	.	.	.	.	.	.	.	.	.	.	.	.	.
.	.	.	.	.	.	.	8cc\|	.	.	.	.	.	.	.	.	.	.	.	.	.	.	.	.	.	.	.	.	.	.
.	5	.	.	.	.	.	(8cc\	.	.	.	.	.	.	.	.	.	.	.	.	.	.	.	.	.	.	.	.	.	.
.	.	.	.	.	.	.	8b-\J)	.	.	.	.	.	.	.	.	.	.	.	.	.	.	.	.	.	.	.	.	.	.
=52	=52	=52	=52	=52	=52	=52	=52	=52	=52	=52	=52	=52	=52	=52	=52	=52	=52	=52	=52	=52	=52	=52	=52	=52	=52	=52	=52	=52	=52
4F\	.	.	4f\	.	4c/	.	8b-/L	.	2.ryy	.	.	.	.	.	.	.	.	.	.	.	.	.	.	.	.	.	.	.	.
.	.	.	.	.	.	.	8a/	.	.	.	.	.	.	.	.	.	.	.	.	.	.	.	.	.	.	.	.	.	.
4r	.	.	4r	.	4r	.	8g/	.	.	.	.	.	.	.	.	.	.	.	.	.	.	.	.	.	.	.	.	.	.
.	.	.	.	.	.	.	8a/	.	.	.	.	.	.	.	.	.	.	.	.	.	.	.	.	.	.	.	.	.	.
4A\	.	.	4A/	.	4f/	.	8cc/	.	.	.	.	.	.	.	.	.	.	.	.	.	.	.	.	.	.	.	.	.	.
.	.	.	.	.	.	.	8ff/J	.	.	.	.	.	.	.	.	.	.	.	.	.	.	.	.	.	.	.	.	.	.
=53	=53	=53	=53	=53	=53	=53	=53	=53	=53	=53	=53	=53	=53	=53	=53	=53	=53	=53	=53	=53	=53	=53	=53	=53	=53	=53	=53	=53	=53
4B-\	.	.	4B-/	.	4f/	.	8ee\L	.	2.ryy	.	.	.	.	.	.	.	.	.	.	.	.	.	.	.	.	1.r	.	1.r	.
.	.	.	.	.	.	.	8dd\	.	.	.	.	.	.	.	.	.	.	.	.	.	.	.	.	.	.	.	.	.	.
4r	.	.	4r	.	4r	.	8cc\	.	.	.	.	.	.	.	.	.	.	.	.	.	.	.	.	.	.	.	.	.	.
.	.	.	.	.	.	.	8b-\	.	.	.	.	.	.	.	.	.	.	.	.	.	.	.	.	.	.	.	.	.	.
4BB-/	.	.	4B-/	.	4d/	.	8a\	.	.	.	.	.	.	.	.	.	.	.	.	.	.	.	.	.	.	.	.	.	.
.	.	.	.	.	.	.	8g\J	.	.	.	.	.	.	.	.	.	.	.	.	.	.	.	.	.	.	.	.	.	.
!	!	!	!LO:LB:g=original	!	!	!	!	!	!	!	!	!	!	!	!	!	!	!	!	!	!	!	!	!	!	!	!	!	!
=54	=54	=54	=54	=54	=54	=54	=54	=54	=54	=54	=54	=54	=54	=54	=54	=54	=54	=54	=54	=54	=54	=54	=54	=54	=54	=54	=54	=54	=54
4C/	.	.	4c/	.	2G/	.	4f/	.	2.ryy	.	.	.	.	.	.	.	.	.	.	.	.	.	.	.	.	.	.	.	.
8c\L	.	.	8c/L	.	.	.	4e/	.	.	.	.	.	.	.	.	.	.	.	.	.	.	.	.	.	.	.	.	.	.
8B-\	.	.	8B-/	.	.	.	.	.	.	.	.	.	.	.	.	.	.	.	.	.	.	.	.	.	.	.	.	.	.
8A\	.	.	8A/	.	4r	.	4r	.	.	.	.	.	.	.	.	.	.	.	.	.	.	.	.	.	.	.	.	.	.
8G\J	.	.	8G/J	.	.	.	.	.	.	.	.	.	.	.	.	.	.	.	.	.	.	.	.	.	.	.	.	.	.
!	!	!	!	!	!LO:PB:g=original	!	!	!	!	!	!	!	!	!	!	!	!	!	!	!	!	!	!	!LO:LB:g=original	!	!	!	!	!
=55	=55	=55	=55	=55	=55	=55	=55	=55	=55	=55	=55	=55	=55	=55	=55	=55	=55	=55	=55	=55	=55	=55	=55	=55	=55	=55	=55	=55	=55
*tremolo	*	*	*	*	*	*	*	*	*	*	*	*	*	*	*	*	*	*	*	*	*	*	*	*	*	*	*	*	*
!	!	!LO:MO:null:mod=!LO&colon;DY&colon;ed=brack	!	!LO:MO:null:mod=!LO&colon;DY&colon;ed=brack	!	!	!	!	!	!	!	!	!	!	!	!	!	!	!	!	!LO:MO:null:mod=!LO&colon;DY&colon;ed=brack	!	!	!	!	!	!LO:MO:null:mod=!LO&colon;DY&colon;ed=brack	!	!LO:MO:null:mod=!LO&colon;DY&colon;ed=brack
!	!	!	!	!	!	!	!	!	!	!	!	!	!	!	!	!	!	!	!	!	!	!	!	!	!	!	!	!	!
!LO:TX:a:i:t=Tutti	!	!fLO:MO:null:mod=f	!	!LO:MO:null:mod=f	!	!LO:DY:b:t=for.	!LO:TX:t=P:problem=mixed beam	!LO:DY:a:t=forte	!	!	!	!LO:DY:rj:a	!	!	!LO:DY:a	!	!	!LO:DY:b	!	!	!LO:MO:null:mod=f	!	!	!	!LO:MO:null:mod=f	!	!LO:MO:null:mod=f	!	!LO:MO:null:mod=f
8F\L	.	.	8F/L	.	16a/LL	f	8ff\L	f	2.ryy	2.F\	qui	f	2.c\	qui	f	2a\	qui	f	2.a\	qui	.	4f\	f	4a\	.	2.aa\	.	2aa\	.
.	.	.	.	.	16a/	.	.	.	.	.	.	.	.	.	.	.	.	.	.	.	.	.	.	.	.	.	.	.	.
!	!	!	!	!	!	!	!	!	!	!	!	!	!	!	!	!	!	!	!	!	!	!	!	!	!LO:DY:b:t=for.	!	!	!	!
!	!	!	!	!	!	!	!	!	!	!	!	!	!	!	!	!	!	!	!	!	!	!	!	!	!LO:MO:null:mod=.	!	!	!	!
8F\	.	.	8c/J	.	16a/	.	16f/L	.	.	.	.	.	.	.	.	.	.	.	.	.	.	.	.	.	f	.	.	.	.
.	.	.	.	.	16a/JJ	.	16g/JJ	.	.	.	.	.	.	.	.	.	.	.	.	.	.	.	.	.	.	.	.	.	.
*	*	*	*tremolo	*	*tremolo	*	*	*	*	*	*	*	*	*	*	*	*	*	*	*	*	*	*	*	*	*	*	*	*
8F\	.	.	8c/L	.	16a/LL	.	8f/L	.	.	.	.	.	.	.	.	.	.	.	.	.	.	4f\	.	4a\	.	.	.	.	.
.	.	.	.	.	16a/	.	.	.	.	.	.	.	.	.	.	.	.	.	.	.	.	.	.	.	.	.	.	.	.
8F\	.	.	8c/	.	16a/	.	8f/	.	.	.	.	.	.	.	.	.	.	.	.	.	.	.	.	.	.	.	.	.	.
.	.	.	.	.	16a/	.	.	.	.	.	.	.	.	.	.	.	.	.	.	.	.	.	.	.	.	.	.	.	.
8F\	.	.	8c/	.	16a/	.	8a/J	.	.	.	.	.	.	.	.	4r	.	.	.	.	.	4f\	.	4a\	.	.	.	8aa\L	.
.	.	.	.	.	16a/	.	.	.	.	.	.	.	.	.	.	.	.	.	.	.	.	.	.	.	.	.	.	.	.
!	!	!	!	!	!	!	!LO:TX:t=P:problem=ucięty skan	!	!	!	!	!	!	!	!	!	!	!	!	!	!	!	!	!	!	!	!	!	!
8F\J	.	.	8c/J	.	16a/	.	8ryy	.	.	.	.	.	.	.	.	.	.	.	.	.	.	.	.	.	.	.	.	8bbn\J	.
.	.	.	.	.	16a/JJ	.	.	.	.	.	.	.	.	.	.	.	.	.	.	.	.	.	.	.	.	.	.	.	.
!	!	!	!	!	!	!	!LO:PB:g=original	!	!	!	!	!	!	!	!	!	!	!	!	!	!	!	!	!	!	!	!	!	!
=56	=56	=56	=56	=56	=56	=56	=56	=56	=56	=56	=56	=56	=56	=56	=56	=56	=56	=56	=56	=56	=56	=56	=56	=56	=56	=56	=56	=56	=56
!	!	!	!	!	!	!	!	!	!	!	!	!	!	!	!	!	!	!	!	!	!	!	!	!	!	!	!	!LO:SIC:v:s=8bbn	!
8E\L	6	.	8c/L	.	16g/LL	.	8bn\L	.	2.ryy	2E\	p(ro)-	.	2c\	p(ro)-	.	2g\	p(ro)-	.	2cc\	p(ro)-	.	2.c/	.	2.g\	.	2.gg\	.	8bb-\L	.
.	.	.	.	.	16g/	.	.	.	.	.	.	.	.	.	.	.	.	.	.	.	.	.	.	.	.	.	.	.	.
8E\	.	.	8c/	.	16g/	.	8cc\	.	.	.	.	.	.	.	.	.	.	.	.	.	.	.	.	.	.	.	.	8ccc\J	.
.	.	.	.	.	16g/	.	.	.	.	.	.	.	.	.	.	.	.	.	.	.	.	.	.	.	.	.	.	.	.
8E\	5	.	8c/	.	16g/	.	8cc\	.	.	.	.	.	.	.	.	.	.	.	.	.	.	.	.	.	.	.	.	4ccc\	.
.	.	.	.	.	16g/	.	.	.	.	.	.	.	.	.	.	.	.	.	.	.	.	.	.	.	.	.	.	.	.
8E\	.	.	8c/	.	16g/	.	8gg\J	.	.	.	.	.	.	.	.	.	.	.	.	.	.	.	.	.	.	.	.	.	.
.	.	.	.	.	16g/	.	.	.	.	.	.	.	.	.	.	.	.	.	.	.	.	.	.	.	.	.	.	.	.
8E\	.	.	8c/	.	16g/	.	8gg\L	.	.	4E\	-pter	.	4c\	-pter	.	4g\	-pter	.	4cc\	-pter	.	.	.	.	.	.	.	4r	.
.	.	.	.	.	16g/	.	.	.	.	.	.	.	.	.	.	.	.	.	.	.	.	.	.	.	.	.	.	.	.
8E\J	.	.	8c/J	.	16g/	.	16bb-\L	.	.	.	.	.	.	.	.	.	.	.	.	.	.	.	.	.	.	.	.	.	.
.	.	.	.	.	16g/JJ	.	16gg\JJ	.	.	.	.	.	.	.	.	.	.	.	.	.	.	.	.	.	.	.	.	.	.
!	!	!	!	!	!	!	!	!	!	!	!	!	!	!	!	!	!	!	!	!	!	!LO:LB:g=original	!	!	!	!	!	!	!
=57	=57	=57	=57	=57	=57	=57	=57	=57	=57	=57	=57	=57	=57	=57	=57	=57	=57	=57	=57	=57	=57	=57	=57	=57	=57	=57	=57	=57	=57
!	!	!	!	!	!	!	!LO:TX:t=P:problem=mixed beam	!	!	!LO:SIC:l:v:t=nos	!	!	!	!	!	!	!	!	!	!	!	!	!	!	!	!	!	!	!
8F\L	.	.	8c/L	.	16a/LL	.	8ff\L	.	2.ryy	2.F\	non	.	2.c\	nos	.	2a\	nos	.	2a\	nos	.	4f\	.	4a\	.	2.aa\	.	2aa\	.
.	.	.	.	.	16a/	.	.	.	.	.	.	.	.	.	.	.	.	.	.	.	.	.	.	.	.	.	.	.	.
8F\	.	.	8c/	.	16a/	.	16f/L	.	.	.	.	.	.	.	.	.	.	.	.	.	.	.	.	.	.	.	.	.	.
.	.	.	.	.	16a/	.	16g/JJ	.	.	.	.	.	.	.	.	.	.	.	.	.	.	.	.	.	.	.	.	.	.
8F\	.	.	8c/	.	16a/	.	8f/L	.	.	.	.	.	.	.	.	.	.	.	.	.	.	4f\	.	4a\	.	.	.	.	.
.	.	.	.	.	16a/	.	.	.	.	.	.	.	.	.	.	.	.	.	.	.	.	.	.	.	.	.	.	.	.
8F\	.	.	8c/	.	16a/	.	8f/	.	.	.	.	.	.	.	.	.	.	.	.	.	.	.	.	.	.	.	.	.	.
.	.	.	.	.	16a/	.	.	.	.	.	.	.	.	.	.	.	.	.	.	.	.	.	.	.	.	.	.	.	.
*	*	*	*	*	*	*	*	*	*	*	*	*	*	*	*	*	*	*	*	*ij	*	*	*	*	*	*	*	*	*
8F\	.	.	8c/	.	16a/	.	8a/	.	.	.	.	.	.	.	.	4r	.	.	8a\L	nos	.	4f\	.	4a\	.	.	.	8aa\L	.
*	*	*	*	*	*	*	*	*	*	*	*	*	*	*	*	*	*	*	*	*Xij	*	*	*	*	*	*	*	*	*
.	.	.	.	.	16a/	.	.	.	.	.	.	.	.	.	.	.	.	.	.	.	.	.	.	.	.	.	.	.	.
8F\J	.	.	8c/J	.	16a/	.	8bn/J	.	.	.	.	.	.	.	.	.	.	.	8bn\J	.	.	.	.	.	.	.	.	8bbn\J	.
.	.	.	.	.	16a/JJ	.	.	.	.	.	.	.	.	.	.	.	.	.	.	.	.	.	.	.	.	.	.	.	.
!	!	!	!	!	!	!	!	!	!	!	!	!	!	!	!	!	!	!	!LO:LB:g=original	!	!	!	!	!	!	!LO:LB:g=original	!	!	!
=58	=58	=58	=58	=58	=58	=58	=58	=58	=58	=58	=58	=58	=58	=58	=58	=58	=58	=58	=58	=58	=58	=58	=58	=58	=58	=58	=58	=58	=58
!	!	!	!	!	!	!	!LO:SIC:v:s=8bn	!	!	!	!	!	!	!	!	!	!	!	!LO:SIC:v:s=8bn	!	!	!	!	!	!	!	!	!LO:SIC:v:s=8bbn	!
8E\L	6	.	8c/L	.	16g/LL	.	8b-\L	.	2.ryy	8E\	ho-	.	8c\	ho-	.	8g\	ho-	.	8b-\	ho-	.	2c/	.	2g\	.	2.gg\	.	8bb-\L	.
.	.	.	.	.	16g/	.	.	.	.	.	.	.	.	.	.	.	.	.	.	.	.	.	.	.	.	.	.	.	.
8E\	.	.	8c/	.	16g/	.	8cc\	.	.	8E\	-mi-	.	8c\	-mi-	.	8g\	-mi-	.	8cc\	-mi-	.	.	.	.	.	.	.	8ccc\J	.
.	.	.	.	.	16g/	.	.	.	.	.	.	.	.	.	.	.	.	.	.	.	.	.	.	.	.	.	.	.	.
8E\	.	.	8c/	.	16g/	.	8cc\	.	.	4E\	-nes	.	4c\	-nes	.	4g\	-nes	.	4cc\	-nes	.	.	.	.	.	.	.	4ccc\	.
.	.	.	.	.	16g/	.	.	.	.	.	.	.	.	.	.	.	.	.	.	.	.	.	.	.	.	.	.	.	.
8E\	5	.	8c/	.	16g/	.	8gg\J	.	.	.	.	.	.	.	.	.	.	.	.	.	.	.	.	.	.	.	.	.	.
.	.	.	.	.	16g/	.	.	.	.	.	.	.	.	.	.	.	.	.	.	.	.	.	.	.	.	.	.	.	.
8E\	.	.	8c/	.	16g/	.	8gg\L	.	.	4E\	et	.	4c\	et	.	4g\	et	.	4cc\	et	.	4c/	.	4g\	.	.	.	4r	.
.	.	.	.	.	16g/	.	.	.	.	.	.	.	.	.	.	.	.	.	.	.	.	.	.	.	.	.	.	.	.
!	!	!	!	!	!	!	!LO:TUP:a:t=klamra łukowa, kreska zamiast numeru	!	!	!	!	!	!	!	!	!	!	!	!	!	!	!	!	!	!	!	!	!	!
8E\J	.	.	8c/J	.	16g/	.	24bb-\L	.	.	.	.	.	.	.	.	.	.	.	.	.	.	.	.	.	.	.	.	.	.
.	.	.	.	.	.	.	24aa\	.	.	.	.	.	.	.	.	.	.	.	.	.	.	.	.	.	.	.	.	.	.
.	.	.	.	.	16g/JJ	.	.	.	.	.	.	.	.	.	.	.	.	.	.	.	.	.	.	.	.	.	.	.	.
.	.	.	.	.	.	.	24gg\JJ	.	.	.	.	.	.	.	.	.	.	.	.	.	.	.	.	.	.	.	.	.	.
=59	=59	=59	=59	=59	=59	=59	=59	=59	=59	=59	=59	=59	=59	=59	=59	=59	=59	=59	=59	=59	=59	=59	=59	=59	=59	=59	=59	=59	=59
8F\L	.	.	8c/L	.	16a/LL	.	16ff\LL	.	2.ryy	2F\	pro-	.	2A\	p(ro)-	.	2a\	p(ro)-	.	2cc\	p(ro)-	.	4f\	.	4a\	.	2.ff\	.	4aa\	.
.	.	.	.	.	16a/	.	16gg\	.	.	.	.	.	.	.	.	.	.	.	.	.	.	.	.	.	.	.	.	.	.
8F\	.	.	8c/	.	16a/	.	16aa\	.	.	.	.	.	.	.	.	.	.	.	.	.	.	.	.	.	.	.	.	.	.
.	.	.	.	.	16a/	.	16gg\JJ	.	.	.	.	.	.	.	.	.	.	.	.	.	.	.	.	.	.	.	.	.	.
8F\	.	.	8c/	.	16a/	.	8ff\L	.	.	.	.	.	.	.	.	.	.	.	.	.	.	4f\	.	4a\	.	.	.	4ff\	.
.	.	.	.	.	16a/	.	.	.	.	.	.	.	.	.	.	.	.	.	.	.	.	.	.	.	.	.	.	.	.
8F\J	.	.	8c/	.	16a/	.	8ff\	.	.	.	.	.	.	.	.	.	.	.	.	.	.	.	.	.	.	.	.	.	.
.	.	.	.	.	16a/JJ	.	.	.	.	.	.	.	.	.	.	.	.	.	.	.	.	.	.	.	.	.	.	.	.
*Xtremolo	*	*	*	*	*Xtremolo	*	*	*	*	*	*	*	*	*	*	*	*	*	*	*	*	*	*	*	*	*	*	*	*
8A\L	6	.	8c/	.	16f/LL	.	8ff\	.	.	4A\	-pter	.	4A\	-pter	.	4f\	-pter	.	4cc\	-pter	.	4F/	.	4f\	.	.	.	4ccc\	.
.	.	.	.	.	16f/	.	.	.	.	.	.	.	.	.	.	.	.	.	.	.	.	.	.	.	.	.	.	.	.
8A\J	.	.	8c/J	.	16f/	.	8ee\J	.	.	.	.	.	.	.	.	.	.	.	.	.	.	.	.	.	.	.	.	.	.
.	.	.	.	.	16f/JJ	.	.	.	.	.	.	.	.	.	.	.	.	.	.	.	.	.	.	.	.	.	.	.	.
*	*	*	*Xtremolo	*	*	*	*	*	*	*	*	*	*	*	*	*	*	*	*	*	*	*	*	*	*	*	*	*	*
!LO:LB:g=original	!	!	!	!	!	!	!	!	!	!LO:PB:g=original	!	!	!	!	!	!	!	!	!	!	!	!	!	!	!	!	!	!	!
=60	=60	=60	=60	=60	=60	=60	=60	=60	=60	=60	=60	=60	=60	=60	=60	=60	=60	=60	=60	=60	=60	=60	=60	=60	=60	=60	=60	=60	=60
*	*	*	*	*	*tremolo	*	*	*	*	*	*	*	*	*	*	*	*	*	*	*	*	*	*	*	*	*	*	*	*
8B-\L	.	.	8B-/L	.	16f/LL	.	4dd\	.	2.ryy	4B-\	no-	.	4B-\	no-	.	4f\	n(o-	.	4dd\	no-	.	4F/	.	4f\	.	2.ff\	.	4ddd\	.
.	.	.	.	.	16f/	.	.	.	.	.	.	.	.	.	.	.	.	.	.	.	.	.	.	.	.	.	.	.	.
8F\	.	.	8B-/J	.	16f/	.	.	.	.	.	.	.	.	.	.	.	.	.	.	.	.	.	.	.	.	.	.	.	.
.	.	.	.	.	16f/	.	.	.	.	.	.	.	.	.	.	.	.	.	.	.	.	.	.	.	.	.	.	.	.
*	*	*	*tremolo	*	*	*	*	*	*	*	*	*	*	*	*	*	*	*	*	*	*	*tremolo	*	*	*	*	*	*	*
8A\	6	.	8A/L	.	16f/	.	8cc\L	.	.	4A\	-stram	.	4c\	-stram	.	4f\	-st)ram	.	4cc\	-stram	.	8F/L	.	8f\L	.	.	.	4ccc\	.
.	.	.	.	.	16f/	.	.	.	.	.	.	.	.	.	.	.	.	.	.	.	.	.	.	.	.	.	.	.	.
8F\	_	.	8A/	.	16f/	.	8cc\	.	.	.	.	.	.	.	.	.	.	.	.	.	.	8F/	.	8f\	.	.	.	.	.
.	.	.	.	.	16f/	.	.	.	.	.	.	.	.	.	.	.	.	.	.	.	.	.	.	.	.	.	.	.	.
8A\	.	.	8A/	.	16f/	.	8ff\	.	.	4F\	ſa-	.	4A\	ſa-	.	4f\	ſa-	.	4cc\	ſa-	.	8F/	.	8f\	.	.	.	4ccc\	.
.	.	.	.	.	16f/	.	.	.	.	.	.	.	.	.	.	.	.	.	.	.	.	.	.	.	.	.	.	.	.
8F\J	.	.	8A/J	.	16f/	.	8ee\J	.	.	.	.	.	.	.	.	.	.	.	.	.	.	8F/J	.	8f\J	.	.	.	.	.
.	x	.	.	.	16f/JJ	.	.	.	.	.	.	.	.	.	.	.	.	.	.	.	.	.	.	.	.	.	.	.	.
*	*	*	*Xtremolo	*	*	*	*	*	*	*	*	*	*	*	*	*	*	*	*	*	*	*Xtremolo	*	*	*	*	*	*	*
=61	=61	=61	=61	=61	=61	=61	=61	=61	=61	=61	=61	=61	=61	=61	=61	=61	=61	=61	=61	=61	=61	=61	=61	=61	=61	=61	=61	=61	=61
!	!	!	!LO:TX:t=P:problem=brak taktu	!	!	!	!	!	!	!	!	!	!	!	!	!	!	!	!	!	!	!	!	!	!	!	!	!	!
8B-\L	.	.	2.ryy	.	16f/LL	.	4dd\	.	2.ryy	4B-\	-lu-	.	4B-\	-lu-	.	4f\	-lu-	.	4dd\	-lu-	.	4F/	.	4f\	.	2.ff\	.	4ddd\	.
.	.	.	.	.	16f/	.	.	.	.	.	.	.	.	.	.	.	.	.	.	.	.	.	.	.	.	.	.	.	.
8F\	.	.	.	.	16f/	.	.	.	.	.	.	.	.	.	.	.	.	.	.	.	.	.	.	.	.	.	.	.	.
.	.	.	.	.	16f/	.	.	.	.	.	.	.	.	.	.	.	.	.	.	.	.	.	.	.	.	.	.	.	.
*	*	*	*	*	*	*	*	*	*	*	*	*	*	*	*	*	*	*	*	*	*	*tremolo	*	*	*	*	*	*	*
8A\	6	.	.	.	16f/	.	8cc\L	.	.	4A\	-tem	.	4c\	-tem	.	4f\	-tem	.	4cc\	-tem	.	8F/L	.	8f\L	.	.	.	4ccc\	.
.	.	.	.	.	16f/	.	.	.	.	.	.	.	.	.	.	.	.	.	.	.	.	.	.	.	.	.	.	.	.
8A\	.	.	.	.	16f/	.	8cc\	.	.	.	.	.	.	.	.	.	.	.	.	.	.	8F/	.	8f\	.	.	.	.	.
.	.	.	.	.	16f/	.	.	.	.	.	.	.	.	.	.	.	.	.	.	.	.	.	.	.	.	.	.	.	.
!	!	!	!	!	!	!	!	!	!	!	!	!	!	!	!	!	!	!	!	!	!	!	!	!	!	!	!	!LO:TX:t=P:problem=ucięty skan	!
!	!	!	!	!	!	!	!	!	!	!	!	!	!	!	!	!	!	!	!	!	!	!	!	!	!	!	!	!LO:MO:mod=4aa@	!
8F\	.	.	.	.	16f/	.	8aa\	.	.	4F\	des-	.	4A\	des-	.	4a\	de-	.	4ff\	de-	.	8F/	.	8f\	.	.	.	4ryy	.
.	.	.	.	.	16f/	.	.	.	.	.	.	.	.	.	.	.	.	.	.	.	.	.	.	.	.	.	.	.	.
!	!	!	!	!	!	!	!	!LO:DY:a	!	!	!	!	!	!	!	!	!	!	!	!	!	!	!	!	!	!	!	!	!
!	!	!	!	!	!	!	!	!LO:MO:null:mod=.	!	!	!	!	!	!	!	!	!	!	!	!	!	!	!	!	!	!	!	!	!
8F\J	.	.	.	.	16f/	.	8gg\J	f	.	.	.	.	.	.	.	.	.	.	.	.	.	8F/J	.	8f\J	.	.	.	.	.
.	.	.	.	.	16f/JJ	.	.	.	.	.	.	.	.	.	.	.	.	.	.	.	.	.	.	.	.	.	.	.	.
*	*	*	*	*	*	*	*	*	*	*	*	*	*	*	*	*	*	*	*	*	*	*Xtremolo	*	*	*	*	*	*	*
!	!	!	!	!	!	!	!	!	!	!	!	!	!LO:LB:g=original	!	!	!	!	!	!	!	!	!	!	!	!	!	!	!LO:LB:g=original	!
=62	=62	=62	=62	=62	=62	=62	=62	=62	=62	=62	=62	=62	=62	=62	=62	=62	=62	=62	=62	=62	=62	=62	=62	=62	=62	=62	=62	=62	=62
8G\L	6	.	8e\L	.	16cc\LL	.	16ff\LL	.	2.ryy	(4G\	-cen-	.	2B-\	-cen-	.	2b-\	-scen-	.	(4ee\	-scen-	.	2c/	.	2g\	.	2gg\	.	2bb-\	.
.	.	.	.	.	16cc\	.	16ee\	.	.	.	.	.	.	.	.	.	.	.	.	.	.	.	.	.	.	.	.	.	.
8G\	.	.	8e\	.	16cc\	.	16dd\	.	.	.	.	.	.	.	.	.	.	.	.	.	.	.	.	.	.	.	.	.	.
.	.	.	.	.	16cc\	.	16cc\JJ	.	.	.	.	.	.	.	.	.	.	.	.	.	.	.	.	.	.	.	.	.	.
8E\	6 5	.	8g\	.	16cc\	.	16cc\LL	.	.	4E\)	.	.	.	.	.	.	.	.	2cc\)	.	.	.	.	.	.	.	.	.	.
.	.	.	.	.	16cc\	.	16ee\	.	.	.	.	.	.	.	.	.	.	.	.	.	.	.	.	.	.	.	.	.	.
8E\	.	.	8g\	.	16cc\	.	16gg\	.	.	.	.	.	.	.	.	.	.	.	.	.	.	.	.	.	.	.	.	.	.
.	.	.	.	.	16cc\	.	16bb-\JJ	.	.	.	.	.	.	.	.	.	.	.	.	.	.	.	.	.	.	.	.	.	.
8F\	.	.	8f\	.	16cc\	.	16bb-\LL	.	.	4F\	-dit	.	4c\	-dit	.	4a\	-dit	.	.	.	.	4f\	.	4a\	.	4ff\	.	4aa\	.
.	.	.	.	.	16cc\	.	16aa\	.	.	.	.	.	.	.	.	.	.	.	.	.	.	.	.	.	.	.	.	.	.
8F\J	.	.	8f\J	.	16cc\	.	16gg\	.	.	.	.	.	.	.	.	.	.	.	.	.	.	.	.	.	.	.	.	.	.
.	.	.	.	.	16cc\JJ	.	16ff\JJ	.	.	.	.	.	.	.	.	.	.	.	.	.	.	.	.	.	.	.	.	.	.
!	!	!	!	!	!	!	!LO:LB:g=original	!	!	!	!	!	!	!	!	!	!	!	!	!	!	!	!	!	!	!	!	!	!
=63	=63	=63	=63	=63	=63	=63	=63	=63	=63	=63	=63	=63	=63	=63	=63	=63	=63	=63	=63	=63	=63	=63	=63	=63	=63	=63	=63	=63	=63
!	!	!	!	!	!	!	!	!	!	!	!	!	!	!	!	!	!	!	!	!	!	!LO:TX:t=P:problem=brak taktu	!	!	!	!	!	!	!
!	!	!	!	!	!	!	!	!	!	!	!	!	!	!	!	!	!	!	!	!	!	!LO:MO:mod=4g@	!	!	!	!	!	!	!
8G\L	6	.	8e\L	.	16cc\LL	.	16ff\LL	.	2.ryy	(4G\	de	.	(2e\	de	.	(2b-\	de	.	2.cc\	-dit	.	2.ryy	.	4b-\	.	2gg\	.	2bb-\	.
.	.	.	.	.	16cc\	.	16ee\	.	.	.	.	.	.	.	.	.	.	.	.	.	.	.	.	.	.	.	.	.	.
8G\	.	.	8e\	.	16cc\	.	16dd\	.	.	.	.	.	.	.	.	.	.	.	.	.	.	.	.	.	.	.	.	.	.
.	.	.	.	.	16cc\	.	16cc\JJ	.	.	.	.	.	.	.	.	.	.	.	.	.	.	.	.	.	.	.	.	.	.
!	!	!	!	!	!	!	!	!	!	!	!	!	!	!	!	!	!	!	!	!	!	!LO:MO:null:mod=4g@	!	!	!	!	!	!	!
8E\	6 5	.	8g\	.	16cc\	.	16cc\LL	.	.	4E\)	.	.	.	.	.	.	.	.	.	.	.	.	.	4g\	.	.	.	.	.
.	.	.	.	.	16cc\	.	16ee\	.	.	.	.	.	.	.	.	.	.	.	.	.	.	.	.	.	.	.	.	.	.
8E\	.	.	8g\	.	16cc\	.	16gg\	.	.	.	.	.	.	.	.	.	.	.	.	.	.	.	.	.	.	.	.	.	.
.	.	.	.	.	16cc\	.	16bb-\JJ	.	.	.	.	.	.	.	.	.	.	.	.	.	.	.	.	.	.	.	.	.	.
!	!	!	!	!	!	!	!	!	!	!	!	!	!	!	!	!	!	!	!	!	!	!LO:MO:null:mod=4g@	!	!	!	!	!	!	!
8F\	.	.	8f\	.	16cc\	.	16bb-\LL	.	.	4F\	.	.	4f\)	.	.	4a\)	.	.	.	.	.	.	.	4a\	.	4ff\	.	4aa\	.
.	.	.	.	.	16cc\	.	16aa\	.	.	.	.	.	.	.	.	.	.	.	.	.	.	.	.	.	.	.	.	.	.
8F\J	.	.	8f\J	.	16cc\	.	16gg\	.	.	.	.	.	.	.	.	.	.	.	.	.	.	.	.	.	.	.	.	.	.
.	.	.	.	.	16cc\JJ	.	16ff\JJ	.	.	.	.	.	.	.	.	.	.	.	.	.	.	.	.	.	.	.	.	.	.
*	*	*	*	*	*Xtremolo	*	*	*	*	*	*	*	*	*	*	*	*	*	*	*	*	*	*	*	*	*	*	*	*
!	!	!	!	!	!	!	!	!	!	!	!	!	!	!	!	!	!	!	!	!	!	!	!	!LO:LB:g=original	!	!	!	!	!
=64	=64	=64	=64	=64	=64	=64	=64	=64	=64	=64	=64	=64	=64	=64	=64	=64	=64	=64	=64	=64	=64	=64	=64	=64	=64	=64	=64	=64	=64
8B-\L	6	.	8B-/L	.	8dd\L	.	16ee\LL	.	2.ryy	(4B-\	Cae-	.	4d\	Cae-	.	(4b-\	Cae-	.	4dd\	de	.	4r	.	4r	.	8r	.	8r	.
.	.	.	.	.	.	.	16dd\	.	.	.	.	.	.	.	.	.	.	.	.	.	.	.	.	.	.	.	.	.	.
8B-\	.	.	8B-/	.	8b-\J	.	16bb-\	.	.	.	.	.	.	.	.	.	.	.	.	.	.	.	.	.	.	8gg\	.	8bb-\	.
.	.	.	.	.	.	.	16gg\JJ	.	.	.	.	.	.	.	.	.	.	.	.	.	.	.	.	.	.	.	.	.	.
8c\	6 4	.	8c/	.	16a/LL	.	4ff\	.	.	4c\)	.	.	4c\	.	.	4a\)	.	.	(4ff\	Cae-	.	4f\	.	4a\	.	4ff\	.	4aa\	.
.	.	.	.	.	16a/	.	.	.	.	.	.	.	.	.	.	.	.	.	.	.	.	.	.	.	.	.	.	.	.
8c\	.	.	8c/	.	16a/	.	.	.	.	.	.	.	.	.	.	.	.	.	.	.	.	.	.	.	.	.	.	.	.
.	.	.	.	.	16a/JJ	.	.	.	.	.	.	.	.	.	.	.	.	.	.	.	.	.	.	.	.	.	.	.	.
*	*	*	*	*	*tremolo	*	*	*	*	*	*	*	*	*	*	*	*	*	*	*	*	*	*	*	*	*	*	*	*
!	!	!	!	!	!	!	!	!	!	!	!	!	!	!	!	!	!	!	!	!	!	!LO:SIC:v:s=4e:t=lub A	!	!	!	!	!	!	!
8c#X\	6 5	.	8A/	.	16g/LL	.	4ee\	.	.	4c#X\	.	.	4A\	.	.	4g\	.	.	4ee\)	.	.	4c/	.	4g\	.	4ee\	.	4gg\	.
.	.	.	.	.	16g/	.	.	.	.	.	.	.	.	.	.	.	.	.	.	.	.	.	.	.	.	.	.	.	.
8c#\J	.	.	8A/J	.	16g/	.	.	.	.	.	.	.	.	.	.	.	.	.	.	.	.	.	.	.	.	.	.	.	.
.	.	.	.	.	16g/JJ	.	.	.	.	.	.	.	.	.	.	.	.	.	.	.	.	.	.	.	.	.	.	.	.
!	!	!	!LO:LB:g=original	!	!	!	!	!	!	!	!	!	!	!	!	!	!	!	!	!	!	!	!	!	!	!	!	!	!
=65	=65	=65	=65	=65	=65	=65	=65	=65	=65	=65	=65	=65	=65	=65	=65	=65	=65	=65	=65	=65	=65	=65	=65	=65	=65	=65	=65	=65	=65
*tremolo	*	*	*	*	*	*	*	*	*	*	*	*	*	*	*	*	*	*	*	*	*	*	*	*	*	*	*	*	*
8d\L	.	.	8A/L	.	16f/LL	.	16ff\LL	.	2.ryy	2d\	-lis	.	4A\	-lis	.	4a\	-lis	.	4ff\	-lis	.	4A/	.	4f\	.	4dd\	.	4ff\	.
.	.	.	.	.	16f/	.	16gg\	.	.	.	.	.	.	.	.	.	.	.	.	.	.	.	.	.	.	.	.	.	.
8d\	.	.	8A/	.	16f/	.	16aa\	.	.	.	.	.	.	.	.	.	.	.	.	.	.	.	.	.	.	.	.	.	.
.	.	.	.	.	16f/JJ	.	16gg\JJ	.	.	.	.	.	.	.	.	.	.	.	.	.	.	.	.	.	.	.	.	.	.
8d\	.	.	8d/	.	16a/LL	.	8ff\L	.	.	.	.	.	4r	.	.	4r	.	.	4r	.	.	4r	.	4r	.	4r	.	4r	.
.	.	.	.	.	16a/	.	.	.	.	.	.	.	.	.	.	.	.	.	.	.	.	.	.	.	.	.	.	.	.
8d\J	.	.	8d/	.	16a/	.	8ff\J	.	.	.	.	.	.	.	.	.	.	.	.	.	.	.	.	.	.	.	.	.	.
.	.	.	.	.	16a/JJ	.	.	.	.	.	.	.	.	.	.	.	.	.	.	.	.	.	.	.	.	.	.	.	.
*Xtremolo	*	*	*	*	*	*	*	*	*	*	*	*	*	*	*	*	*	*	*	*	*	*	*	*	*	*	*	*	*
8A\L	6	.	8A/	.	16cc\LL	.	16gg\LL	.	.	4A\	de	.	4r	.	.	4r	.	.	4r	.	.	4f\	.	4f\	.	4ff\	.	4ff\	.
.	.	.	.	.	16cc\	.	16ff\	.	.	.	.	.	.	.	.	.	.	.	.	.	.	.	.	.	.	.	.	.	.
8A\J	.	.	8A/J	.	16cc\	.	16ee\	.	.	.	.	.	.	.	.	.	.	.	.	.	.	.	.	.	.	.	.	.	.
.	.	.	.	.	16cc\JJ	.	16ff\JJ	.	.	.	.	.	.	.	.	.	.	.	.	.	.	.	.	.	.	.	.	.	.
*	*	*	*	*	*Xtremolo	*	*	*	*	*	*	*	*	*	*	*	*	*	*	*	*	*	*	*	*	*	*	*	*
!	!	!	!	!	!LO:LB:g=original	!	!	!	!	!	!	!	!	!	!	!LO:LB:g=original	!	!	!	!	!	!	!	!	!	!	!	!	!
=66	=66	=66	=66	=66	=66	=66	=66	=66	=66	=66	=66	=66	=66	=66	=66	=66	=66	=66	=66	=66	=66	=66	=66	=66	=66	=66	=66	=66	=66
!LO:TX:t=P:problem=mixed beam	!	!	!	!	!	!	!	!	!	!	!	!	!	!	!	!	!	!	!	!	!	!	!	!	!	!	!	!	!
8B-\L	6 5	.	8B-/L	.	8dd\L	.	16ee\LL	.	2.ryy	4B-\	Cae-	.	4d\	de	.	4b-\	de	.	4dd\	de	.	4f\	.	4f\	.	2ff\	.	4gg\	.
.	.	.	.	.	.	.	16dd\	.	.	.	.	.	.	.	.	.	.	.	.	.	.	.	.	.	.	.	.	.	.
8B-\	.	.	8B-/J	.	8b-\J	.	16bb-\	.	.	.	.	.	.	.	.	.	.	.	.	.	.	.	.	.	.	.	.	.	.
.	.	.	.	.	.	.	16gg\JJ	.	.	.	.	.	.	.	.	.	.	.	.	.	.	.	.	.	.	.	.	.	.
8c\	4	.	8c/L	.	16a/LL	.	4ff\	.	.	4cn\	.	.	2c\	Cae-	.	(4a\	Cae-	.	(4ff\	Cae-	.	4f\	.	4a\	.	.	.	4aa\	.
.	.	.	.	.	16a/	.	.	.	.	.	.	.	.	.	.	.	.	.	.	.	.	.	.	.	.	.	.	.	.
8c\	.	.	8c/	.	16a/	.	.	.	.	.	.	.	.	.	.	.	.	.	.	.	.	.	.	.	.	.	.	.	.
.	.	.	.	.	16a/JJ	.	.	.	.	.	.	.	.	.	.	.	.	.	.	.	.	.	.	.	.	.	.	.	.
8C/	3	.	8c/	.	16g/LL	.	4ee\	.	.	4C/	.	.	.	.	.	4g\)	.	.	4ee\)	.	.	4c/	.	4g\	.	4ee\	.	4gg\	.
.	.	.	.	.	16g/	.	.	.	.	.	.	.	.	.	.	.	.	.	.	.	.	.	.	.	.	.	.	.	.
8C/J	.	.	8c/J	.	16g/	.	.	.	.	.	.	.	.	.	.	.	.	.	.	.	.	.	.	.	.	.	.	.	.
.	.	.	.	.	16g/JJ	.	.	.	.	.	.	.	.	.	.	.	.	.	.	.	.	.	.	.	.	.	.	.	.
=67	=67	=67	=67	=67	=67	=67	=67	=67	=67	=67	=67	=67	=67	=67	=67	=67	=67	=67	=67	=67	=67	=67	=67	=67	=67	=67	=67	=67	=67
!	!	!	!	!	!	!	!	!	!	!	!	!	!	!LO:MO:mod=-lis.	!	!	!LO:MO:mod=-lis.	!	!	!LO:MO:mod=-lis.	!	!	!	!	!	!	!	!	!
4F\	.	.	4c/	.	4a/	.	4ff\	.	2.ryy	4F\	-lis.	.	4c\	-lis	.	4a\	-lis	.	4ff\	-lis	.	4A/	.	4f\	.	4ff\	.	4ff\	.
4r	.	.	4F/	.	4a/	.	4f/	.	.	4r	.	.	4r	.	.	4r	.	.	4r	.	.	4r	.	4r	.	4r	.	4r	.
!	!	!	!	!	!	!	!	!	!	!	!	!	!	!	!	!	!	!	!	!	!	!	!	!LO:TX:t=Et in Carnatus Tacet.:mod=	!	!	!	!	!
4r	.	.	4r	.	4r	.	4r	.	.	4r	.	.	4r	.	.	4r	.	.	4r	.	.	4r	.	4r	.	4r	.	4r	.
==	==	==	==	==	==	==	==	==	==	==	==	==	==	==	==	==	==	==	==	==	==	==	==	==	==	==	==	==	==
*-	*-	*-	*-	*-	*-	*-	*-	*-	*-	*-	*-	*-	*-	*-	*-	*-	*-	*-	*-	*-	*-	*-	*-	*-	*-	*-	*-	*-	*-
!!!system-decoration: [(g1)][(g2)][(g3)][(g4)]s13
!!!ENC: Andrzej Borzym
!!!END: 2020-10-01
!!!ENC: Leszek Kubiak
!!!END: 2022-01-17
!!!RDF**kern: | = vertical stroke
!!!RDF**kern: @ = marked note, color=grey
!!!YEC: Copyright 2022 Narodowy Instytut Fryderyka Chopina (https://polishscores.org)
!!!YEM: License CC-BY-4.0 (https://creativecommons.org/licenses/by/4.0)
